!!!!SEGMENT: pl-kk--kk-i-626--001-001_lisinski-karol--vesperae-dixit-dominus.krn
!!!cenid: 18xx:4606
!!!COM: Lisiński, Karol
!!!COM-rismID: pe50053612
!!!CDT:
!!!CNT: Polish
!!!OPR: Vesperae
!!!OTL: Dixit Dominus
!!!OMV: 001
!!!PDT:
!!!AGN: Sacred; Vespers
!!!YEC: Copyright 2022 Narodowy Instytut Fryderyka Chopina (https://polishscores.org)
!!!YEM: License CC-BY-4.0 (https://creativecommons.org/licenses/by/4.0)
!!!SMS-siglum: PL-Kk
!!!SMS-shelfmark: Kk.I.626
!!!SMS-variant: Violino Primo: Kk.I.626: 29-30; Violino Secundo: Kk.I.626: 34-35
!!!SMS-altvar: Violino Primo: Kk.I.626: 23-24; Kk.I.626: Violino Secundo: 39-40
!!!SMS-shelfwork: 001-001 M
!!!NIFC-rismSourceID: 1001210167
!!!NIFC-rismChildID: 1001210167
!!!NIFC-islandoraID: pl-kk:20059
!!!URL-pdf-islandora: https://repozytorium.nifc.pl/islandora/object/pl-kk:20059/datastream/PDF/view
!!!URL-scan: https://polish.musicsources.pl/pl/lokalizacje/galeria/rekopisy/7260/2 @EN{Scan on Polish Music Sources Website} @PL{Skany w portalu Dziedzictwo Muzyki Polskiej w otwartym dostępie}
!!!IIIF:
!!!ONB-nifc: UWAGA: Części Nieszporów: 1. Dixit Dominus, 2. Confitebor, 3. Beatus vir, 4. Laudate pueri, 5. Laudate Dominum, 6. Magnificat. Gloria wchodzi w ramy ww. części. do Uwaga: Partia Organo na skanach 57-59 i 2. Uwaga: Violino Primo i Secundo wg odpisów spisanych ręką tą samą co reszta partii (s. 29-33 i 39-44). Proszę uzupełnić pola SMS:variant i SMS:altvar.
!!!AIN: 1 alto 1 bass 1 canto 2 clrno 1 organ 1 tenor 1 viole 2 violn
!!!key:
**kern	**fba	**kern	**kern	**dynam	**kern	**dynam	**kern	**text	**kern	**text	**kern	**text	**kern	**text	**kern	**kern
*part10	*	*part9	*part8	*part8	*part7	*part7	*part6	*part6	*part5	*part5	*part4	*part4	*part3	*part3	*part2	*part1
*staff10	*	*staff9	*staff8	*	*staff7	*	*staff6	*staff6	*staff5	*staff5	*staff4	*staff4	*staff3	*staff3	*staff2	*staff1
*I"Organo	*	*I"Violone	*I"Violino Secundo	*	*I"Violino Primo	*	*I"Baſso.	*	*I"Tenore.	*	*I"Alto	*	*I"Canto	*	*I"Clarino Secundo ex C	*I"Clarino Primo ex C
*I'org	*	*I'V-ne	*I'vl 2	*	*I'vl 1	*	*I'B	*	*I'T	*	*I'A	*	*I'C	*	*I'cln 2 in C	*I'cln 1 in C
*Iorgan	*	*Iviole	*Ivioln	*	*Ivioln	*	*Ibass	*	*Itenor	*	*Ialto	*	*Icanto	*	*Iclrno	*Iclrno
*ICklav	*	*ICstr	*ICstr	*	*ICstr	*	*ICvox	*	*ICvox	*	*ICvox	*	*ICvox	*	*ICbras	*ICbras
*clefF4	*	*clefFv4	*clefG2	*	*clefG2	*	*clefF4	*	*clefC4	*	*clefC3	*	*clefC1	*	*clefG2	*clefG2
*k[]	*	*k[]	*k[]	*	*k[]	*	*k[]	*	*k[]	*	*k[]	*	*k[]	*	*k[]	*k[]
*C:	*	*C:	*C:	*	*C:	*	*C:	*	*C:	*	*C:	*	*C:	*	*C:	*C:
*M4/4	*	*M4/4	*M4/4	*	*M4/4	*	*M4/4	*	*M4/4	*	*M4/4	*	*M4/4	*	*M4/4	*M4/4
*met(c)	*	*met(c)	*met(c)	*	*met(c)	*	*met(c)	*	*met(c)	*	*met(c)	*	*met(c)	*	*met(c)	*met(c)
=1	=1	=1	=1	=1	=1	=1	=1	=1	=1	=1	=1	=1	=1	=1	=1	=1
!LO:TX:a:t=Tutti Vivace	!	!LO:TX:a:t=Tut(ti) vivace	!LO:TX:b:t=Dixit	!	!LO:TX:b:t=Dixit Dominus	!	!	!	!	!	!LO:TX:a:t=Tutti Vivace	!	!	!	!LO:TX:b:t=Dixit Dominus	!LO:TX:b:t=Dixit Dominus
!LO:TX:b"t=Dixit Dominus	!	!LO:TX:b:t=Dixit	!	!	!	!	!	!	!	!	!	!	!	!	!LO:TX:t=P:problem:mixed beam	!
4c\	.	4C\	16e/LL	.	16cc/LL	.	4c\	Di-	4c\	Di-	4g\	Di-	4cc\	Di-	8cc\L	8ee\L
.	.	.	16e/	.	16g/	.	.	.	.	.	.	.	.	.	.	.
.	.	.	16e/	.	16g/	.	.	.	.	.	.	.	.	.	8cc\	8ee\
.	.	.	16e/JJ	.	16g/JJ	.	.	.	.	.	.	.	.	.	.	.
4G\	.	4GG\	16g/LL	.	16dd\LL	.	4G\	-xit	4B\	-xit	4g\	-xit	4dd\	-xit	8dd\	8dd\
.	.	.	16b/	.	16dd\	.	.	.	.	.	.	.	.	.	.	.
.	.	.	16b/	.	16dd\	.	.	.	.	.	.	.	.	.	8g/J	8cc\J
.	.	.	16b/JJ	.	16dd\JJ	.	.	.	.	.	.	.	.	.	.	.
8E\L	6	8EE\L	16cc\LL	.	8ee\L	.	8E\	Do-	8c\	Do-	8g\	Do-	8ee\	Do-	4cc\	4r
.	.	.	16cc\	.	.	.	.	.	.	.	.	.	.	.	.	.
8C\	.	8CC\	16cc\	.	8ee\	.	16C/	-mi-	16c\	-mi-	16g\	-mi-	16ee\	-mi-	.	.
.	.	.	16cc\JJ	.	.	.	16C/	-nus	16c\	-nus	16g\	-nus	16ee\	-nus	.	.
8E\	.	8EE\	16cc\LL	.	8gg\	.	8E\	Do-	8c\	Do-	8g\	Do-	8ee\	Do-	4r	4ee\
.	.	.	16cc\	.	.	.	.	.	.	.	.	.	.	.	.	.
8G\J	.	8GG\J	16b\	.	8dd\J	.	16G\	-mi-	16B\	-mi-	16g\	-mi-	16dd\	-mi-	.	.
.	.	.	16b\JJ	.	.	.	16G\	-no	16B\	-no	16g\	-no	16dd\	-no	.	.
=2	=2	=2	=2	=2	=2	=2	=2	=2	=2	=2	=2	=2	=2	=2	=2	=2
4c\	.	4C\	16cc\LL	.	16cc/LL	.	4c\	me-	4c\	me-	4g\	me-	4ee\	me-	8ee\L	8gg\L
.	.	.	16ee\	.	16g/	.	.	.	.	.	.	.	.	.	.	.
.	.	.	16ee\	.	16g/	.	.	.	.	.	.	.	.	.	8ee\	8gg\
.	.	.	16ee\JJ	.	16g/JJ	.	.	.	.	.	.	.	.	.	.	.
4G\	.	4GG\	16gg\LL	.	16dd/LL	.	4G\	-o	4B\	-o	4g\	-o	4dd\	-o	8dd\	8ff\
.	.	.	16b\	.	16g/	.	.	.	.	.	.	.	.	.	.	.
.	.	.	16b\	.	16g/	.	.	.	.	.	.	.	.	.	8dd\J	8ff\J
.	.	.	16b\JJ	.	16g/JJ	.	.	.	.	.	.	.	.	.	.	.
8E\L	.	8EE\L	16cc\LL	.	8cc\L	.	(8E\L	se-	8c\L	se-	4g\	se-	4cc\	se-	4cc\	4ee\
.	.	.	16cc\	.	.	.	.	.	.	.	.	.	.	.	.	.
8C\	.	8CC\	16cc\	.	8ee\	.	8C\J)	.	8d\J	.	.	.	.	.	.	.
.	.	.	16cc\JJ	.	.	.	.	.	.	.	.	.	.	.	.	.
8E\	6	8EE\	16cc\LL	.	8gg\	.	8E\	-de	8c\	-de	8g\	-de	8cc\	-de	4r	4r
.	.	.	16cc\	.	.	.	.	.	.	.	.	.	.	.	.	.
8G\J	.	8GG\J	16b\	.	8dd\J	.	8G\	a	8B\	a	8g\	a	8dd\	a	.	.
.	.	.	16b\JJ	.	.	.	.	.	.	.	.	.	.	.	.	.
!	!	!	!LO:LB:g=original	!	!	!	!LO:LB:g=original	!	!	!	!	!	!	!	!	!
=3	=3	=3	=3	=3	=3	=3	=3	=3	=3	=3	=3	=3	=3	=3	=3	=3
!LO:TX:t=P:problem:mixed beam	!	!LO:TX:t=P:problem:mixed beam	!	!	!	!	!LO:TX:t=P:problem:mixed beam	!	!	!	!	!	!	!	!	!
8c\L	.	8C\L	16cc\LL	.	8ee\L	.	8c\L	dex-	4.c\	dex-	4g\	dex-	4.ee\	dex-	8cc\L	8ee\L
.	.	.	16cc\	.	.	.	.	.	.	.	.	.	.	.	.	.
8C/	.	8CC/	16cc\	.	8ee\	.	8C/J	.	.	.	.	.	.	.	8cc\	8ee\
.	.	.	16cc\JJ	.	.	.	.	.	.	.	.	.	.	.	.	.
8E/	6	8EE/	16cc\LL	.	8gg\	.	8E\L	-tris	.	.	4g\	-tris	.	.	8cc\	8gg\
.	.	.	16cc\	.	.	.	.	.	.	.	.	.	.	.	.	.
8C/J	.	8CC/J	16cc\	.	8ee\J	.	8C\J	.	8c\	-tris	.	.	8ee\	-tris	8cc\J	8ee\J
.	.	.	16cc\JJ	.	.	.	.	.	.	.	.	.	.	.	.	.
!LO:TX:t=P:problem:mixed beam	!	!LO:TX:t=P:problem:mixed beam	!	!	!	!	!	!	!LO:LB:g=original	!	!	!	!LO:LB:g=original	!	!	!LO:TX:t=P:problem:mixed beam
8G\L	.	8GG\L	16b\LL	.	16dd\LL	.	8G\	me-	8B\	me-	8g\	me-	8dd\	me-	16g/LL	16dd\LL
.	.	.	16gg\	.	16gg\	.	.	.	.	.	.	.	.	.	16g/	16g/
8GG/J	.	8GGG/J	16gg\	.	16gg\	.	8GG/	-is	8B\	-is	8g\	-is	8dd\	-is	16g/	16g/
.	.	.	16gg\JJ	.	16gg\JJ	.	.	.	.	.	.	.	.	.	16g/JJ	16g/JJ
4r	.	4r	16dd\LL	.	16dd\LL	.	4r	.	4r	.	4r	.	4r	.	16g/LL	16g/LL
.	.	.	16dd\	.	16dd\	.	.	.	.	.	.	.	.	.	16g/	16g/
.	.	.	16dd\	.	16dd\	.	.	.	.	.	.	.	.	.	16g/	16g/
.	.	.	16dd\JJ	.	16dd\JJ	.	.	.	.	.	.	.	.	.	16g/JJ	16g/JJ
!	!	!	!	!	!LO:LB:g=original	!	!	!	!	!	!LO:LB:g=original	!	!	!	!	!
=4	=4	=4	=4	=4	=4	=4	=4	=4	=4	=4	=4	=4	=4	=4	=4	=4
4G\	.	4GG\	16b\LL	.	16b/LL	.	4G\	Do-	4B\	do-	4g\	do-	4dd\	Do-	4g/	4g/
.	.	.	16b\	.	16d/	.	.	.	.	.	.	.	.	.	.	.
.	.	.	16b\	.	16d/	.	.	.	.	.	.	.	.	.	.	.
.	.	.	16b\JJ	.	16d/JJ	.	.	.	.	.	.	.	.	.	.	.
4D\	#	4DD\	16a\LL	.	16ff#X\LL	.	4D/	-nec	4A\	-nec	4f#X\	-nec	4dd\	-nec	4r	4r
.	.	.	16cc\	.	16a\	.	.	.	.	.	.	.	.	.	.	.
.	.	.	16cc\	.	16a\	.	.	.	.	.	.	.	.	.	.	.
.	.	.	16cc\JJ	.	16a\JJ	.	.	.	.	.	.	.	.	.	.	.
8BB/L	6	8BBB/L	8b\L	.	8gg\L	.	8BB/	po-	8B\	po-	8g\	po-	8dd\	po-	2r	2r
8GG/	.	8GGG/	8dd\	.	8bb\	.	8GG/	-nam	8B\	-nam	8g\	-nam	8dd\	-nam	.	.
8BB/	#	8BBB/	8b\	.	8gg\	.	8BB/	i-	8B\	i-	8g\	i-	8dd\	i-	.	.
8D/J	.	8DD/J	8a\J	.	8ff#X\J	.	8D/	-ni-	8A\	-ni-	8f#X\	-ni-	8dd\	-ni-	.	.
!LO:LB:g=original	!	!	!	!	!	!	!	!	!	!	!	!	!	!	!	!
=5	=5	=5	=5	=5	=5	=5	=5	=5	=5	=5	=5	=5	=5	=5	=5	=5
4G\	.	4GG\	16b\LL	.	16gg\LL	.	4G\	-mi-	4B\	-mi-	4g\	-mi-	4dd\	-mi-	8dd\L	8gg\L
.	.	.	16b\	.	16dd\	.	.	.	.	.	.	.	.	.	.	.
.	.	.	16b\	.	16dd\	.	.	.	.	.	.	.	.	.	8dd\	8gg\
.	.	.	16b\JJ	.	16dd\JJ	.	.	.	.	.	.	.	.	.	.	.
4D\	#	4DD\	16a\LL	.	16ff#X\LL	.	4D\	-cos	4A\	-cos	4f#X\	-cos	4dd\	-cos	8dd\	8ff#X\
.	.	.	16cc\	.	16dd\	.	.	.	.	.	.	.	.	.	.	.
.	.	.	16cc\	.	16dd\	.	.	.	.	.	.	.	.	.	8dd\J	8ff#\J
.	.	.	16cc\JJ	.	16dd\JJ	.	.	.	.	.	.	.	.	.	.	.
8BB/L	6	8BBB/L	8dd\L	.	8b\L	.	8BB/L	tu-	8B\	tu-	8g\	tu-	8dd\	tu-	4g/	4gg\
8GG/	.	8GGG/	8b\	.	8b\	.	8GG/J	.	8B\	-os	4g\	-os	4dd\	-os	.	.
8BB/	6	8BBB/	8g\	.	8dd\	.	8D/	-os	4A\	sca-	.	.	.	.	4r	4r
8D/J	.	8DD/J	8a\J	.	8ff#X\J	.	8E/	sca-	.	.	8f#X\	sca-	8dd\	sca-	.	.
!	!	!LO:LB:g=original	!LO:LB:g=original	!	!	!	!	!	!	!	!	!	!	!	!LO:LB:g=original	!LO:LB:g=original
=6	=6	=6	=6	=6	=6	=6	=6	=6	=6	=6	=6	=6	=6	=6	=6	=6
4G\	.	4GG\	16b\LL	.	16dd\LL	.	4G\	-bel-	4B\	-bel-	4g\	-bel-	4.b\	-bel-	8g/L	8dd\L
.	.	.	16b\	.	16gg\	.	.	.	.	.	.	.	.	.	.	.
.	.	.	16b\	.	16gg\	.	.	.	.	.	.	.	.	.	8g/	8dd\
.	.	.	16b\JJ	.	16gg\JJ	.	.	.	.	.	.	.	.	.	.	.
!	!	!	!	!	!LO:TX:t=P:problem:mixed beam	!	!	!	!	!	!	!	!	!	!	!
4Fn\	4 2	4FFn\	16b\LL	.	16g/LL	.	4F\	-lum	4d\	-lum	4g\	-lum	.	.	8g/	8dd\
.	.	.	16b\	.	16gg\	.	.	.	.	.	.	.	.	.	.	.
.	.	.	16b\	.	16gg\	.	.	.	.	.	.	.	8b\	-lum	8g/J	8dd\J
.	.	.	16b\JJ	.	16gg\JJ	.	.	.	.	.	.	.	.	.	.	.
!	!	!	!	!	!	!	!LO:LB:g=original	!	!	!	!	!	!	!	!	!
8E\L	6	8EE\L	8cc\L	.	8gg\L	.	8E\L	pe-	4e\	pe-	8g\L	pe-	4cc\	pe-	4cc\	4ee\
8C\	.	8CC\	8cc\	.	8ee\	.	8C\J	.	.	.	8e\J	.	.	.	.	.
8D\	.	8DD\	8cc\	.	8ffn\	.	8D/	-dum	8e\	-dum	8fn\	-dum	8cc\	-dum	4r	4r
8E\J	.	8EE\J	8b\J	.	[8gg\J	.	8E/	tu-	8e\	tu-	8g\	tu-	8b\	tu-	.	.
!	!	!	!	!	!	!	!	!	!LO:LB:g=original	!	!	!	!LO:LB:g=original	!	!	!
=7	=7	=7	=7	=7	=7	=7	=7	=7	=7	=7	=7	=7	=7	=7	=7	=7
8F\L	9	8FF\L	8a\L	.	8gg\L]	.	8F\L	-o-	4c\	-o-	8g\L	-o-	8a\L	-o-	2r	2r
8G\	.	8GG\	8b\	.	8cc\J	.	8G\	.	.	.	8c\J	.	8b\	.	.	.
8A\	6	8AA\	8cc\	.	4ff\	.	8A\	.	8c\	-rum	8f\L	.	8cc\	.	.	.
8B\J	6	8BB\J	8dd\J	.	.	.	8B\J	.	8c\	tu-	8g\J	.	8dd\J	.	.	.
!LO:TX:t=P:problem:mixed beam	!	!LO:TX:t=P:problem:mixed beam	!	!	!LO:LB:g=original	!	!	!	!	!	!LO:LB:g=original	!	!	!	!	!
8c\L	.	8C\L	8cc\L	.	8ee\L	.	8c\L	.	(8G\L	-o-	8g\L	.	8ee\L	.	8cc\L	8ee\L
8F\	6	8FF\	8cc\	.	8dd\	.	8F\J	.	8c\J)	.	8a\J	.	8dd\J	.	8cc\	8dd\
!	!	!	!	!	!	!	!LO:TX:t=P:problem:mixed beam	!	!	!	!	!	!	!	!	!
8G\	6 4	8GG\	8.cc\	.	8.dd\	.	8G\L	.	(8c\L	.	4g\	.	4ddT\	.	8cc\	8.dd\
8GG/J	3	8GGG/J	.	.	.	.	8GG/J	.	8B\J)	.	.	.	.	.	8g\J	.
.	.	.	16b\Jk	.	16cc\Jk	.	.	.	.	.	.	.	.	.	.	16dd\Jk
=8	=8	=8	=8	=8	=8	=8	=8	=8	=8	=8	=8	=8	=8	=8	=8	=8
4C/	.	4CC/	4cc\	.	8cc\	.	4C/	-rum	4c\	-rum	4g\	-rum	8cc\	-rum	4e/	4cc\
!	!	!	!	!	!LO:TX:b:t=|	!	!	!	!	!	!	!	!	!	!	!
.	.	.	.	.	8g/L	.	.	.	.	.	.	.	8g\	Vir-	.	.
!	!	!	!	!	!LO:TX:b:t=|	!	!	!	!	!	!	!	!	!	!	!
4r	.	4r	4r	.	8a/	.	4r	.	4r	.	4r	.	8a\	-gam	4r	4r
!	!	!	!	!	!LO:TX:b:t=|	!	!	!	!	!	!	!	!	!	!	!
.	.	.	.	.	8b/J	.	.	.	.	.	.	.	8b\	vir-	.	.
8r	.	8r	8r	.	16cc\LL	.	8r	.	8r	.	8r	.	4cc\	-tu-	8r	8r
.	.	.	.	.	16cc\	.	.	.	.	.	.	.	.	.	.	.
8C\L	.	8CC\L	8e/L	.	16cc\	.	8C/	vir-	8c\	Vir-	8e\	Vir-	.	.	8c/L	8c/L
.	.	.	.	.	16cc\JJ	.	.	.	.	.	.	.	.	.	.	.
8D\	-6	8DD\	8f/	.	16b-X\LL	.	8D/	-tu-	8c\	-gam	8f\	-gam	4b-X\	-tis	8c/	8c/
.	.	.	.	.	16b-\	.	.	.	.	.	.	.	.	.	.	.
8E\J	-5	8EE\J	8g/J	.	16b-\	.	8E/	-tis	8c\	vir-	8g\	vir-	.	.	8c/J	8c/J
.	.	.	.	.	16b-\JJ	.	.	.	.	.	.	.	.	.	.	.
=9	=9	=9	=9	=9	=9	=9	=9	=9	=9	=9	=9	=9	=9	=9	=9	=9
4F\	.	4FF\	4a/	.	8a\L	.	8F\	tu-	8c\	-tu-	8a\	-tu-	8a\	tu-	4c/	4c/
.	.	.	.	.	8a\	.	8F\	-ae	8c\	-tis	8a\	-tis	16a\	-ae	.	.
.	.	.	.	.	.	.	.	.	.	.	.	.	16a\	e-	.	.
4r	.	4r	4r	.	8bn\	.	4r	.	4r	.	4ryy	.	8bn\	-mit-	4r	4r
.	.	.	.	.	8cc#X\J	.	.	.	.	.	.	.	8cc\	-tet	.	.
!LO:LB:g=original	!	!	!	!	!	!	!	!	!	!	!	!	!	!	!	!
8r	.	8r	8r	.	16dd\LL	.	8r	.	8r	.	8r	.	8.dd\	Do-	8r	8r
.	.	.	.	.	16dd\	.	.	.	.	.	.	.	.	.	.	.
8D\L	.	8DD\L	8f#X/L	.	16dd\	.	8D\L	Do-	8d\	ex	8f#X\	ex	.	.	8dd\L	8dd\L
.	.	.	.	.	16dd\JJ	.	.	.	.	.	.	.	16dd\	-mi-	.	.
!	!	!	!	!	!	!	!	!	!	!	!	!	!LO:LB:g=original	!	!	!
8E\	6	8EE\	8g/	.	16ccn\LL	.	8E\J	.	4d\	Si-	8g\L	Si-	8cc\	-nus	8dd\	8dd\
.	.	.	.	.	16cc\	.	.	.	.	.	.	.	.	.	.	.
8F#X\J	-5	8FF#X\J	8a/J	.	16cc\	.	8F#X\	-mi-	.	.	8a\J	.	8cc\	ex	8dd\J	8dd\J
.	.	.	.	.	16cc\JJ	.	.	.	.	.	.	.	.	.	.	.
!	!	!	!	!	!	!	!LO:LB:g=original	!	!	!	!	!	!	!	!	!
=10	=10	=10	=10	=10	=10	=10	=10	=10	=10	=10	=10	=10	=10	=10	=10	=10
4G\	.	4GG\	4b\	.	8b\L	.	8G\	-na-	4d\	-on	4g\	-on	8b\	Si-	4g/	4dd\
!	!	!	!	!	!LO:TX:a:t=|	!	!	!	!	!	!	!	!	!	!	!
.	.	.	.	.	8b\	.	8G\	-re	.	.	.	.	8b\	-on	.	.
!	!	!	!	!	!LO:TX:a:t=|	!	!	!	!	!	!	!	!	!	!	!
4r	.	4r	4r	.	8cc#X\	.	4r	.	4r	.	4r	.	8cc#X\	do-	4r	4r
!	!	!	!	!	!LO:TX:a:t=|	!	!	!	!LO:LB:g=original	!	!	!	!	!	!	!
.	.	.	.	.	8dd#X\J	.	.	.	.	.	.	.	8dd#X\	-mi-	.	.
!	!	!	!LO:LB:g=original	!	!	!	!	!	!	!	!	!	!	!	!	!
8r	.	8r	8r	.	16ee\LL	.	8r	.	8r	.	8r	.	4ee\	-na-	8r	8r
.	.	.	.	.	16ee\	.	.	.	.	.	.	.	.	.	.	.
8E\L	#	8EE\L	8g#X/L	.	16ee\	.	8E\	in	8e\	in	8g#X\	in	.	.	8e/L	8e/L
.	.	.	.	.	16ee\JJ	.	.	.	.	.	.	.	.	.	.	.
!	!	!	!	!	!LO:LB:g=original	!	!	!	!	!	!	!	!	!	!	!
8F#X\	6	8FF#X\	8a/	.	16ddn\LL	.	8F#X\	me-	8d\	me-	8a\	me-	8ddn\	-re	8e/	8e/
.	.	.	.	.	16dd\	.	.	.	.	.	.	.	.	.	.	.
8G#X\J	-5	8GG#X\J	8b/J	.	16dd\	.	8G#X\	-di-	8e\	-di-	8b\	-di-	8dd\	in	8e/J	8e/J
.	.	.	.	.	16dd\JJ	.	.	.	.	.	.	.	.	.	.	.
!	!	!	!	!	!	!	!	!	!	!	!LO:LB:g=original	!	!	!	!	!
=11	=11	=11	=11	=11	=11	=11	=11	=11	=11	=11	=11	=11	=11	=11	=11	=11
4A\	n	4AA\	4cc\	.	8cc\L	.	8A\	-o	8e\	-o	8a\	-o	8cc\	me-	4e/	4e/
.	.	.	.	.	8ee\	.	8A\	i-	8c\	i-	8a\	i-	8ee\	-di-	.	.
8r	.	8r	8r	.	8ffn\	.	8A\	-ni-	8c\	-ni-	8a\	-ni-	8ff\	-o	4r	4r
8A\	.	8AA\	8cc\	.	8ee\J	.	8A\	-mi-	8c\	-mi-	8a\	-mi-	8ee\	i-	.	.
!	!	!LO:LB:g=original	!	!	!	!	!	!	!	!	!	!	!	!	!	!
8A\L	4 2	8AA\L	8b\L	.	16dd#X\LL	.	4A\	-co-	4B\	-co-	4f#X\	-co-	4dd#X\	-ni-	2r	2r
.	.	.	.	.	16b\	.	.	.	.	.	.	.	.	.	.	.
8A\	.	8AA\	8b\	.	16dd#\	.	.	.	.	.	.	.	.	.	.	.
.	.	.	.	.	16ff#X\JJ	.	.	.	.	.	.	.	.	.	.	.
8Gn\	6	8GGn\	8b\	.	16ee\LL	.	8Gn\	-rum	8B\	-rum	8g\	-rum	4ee\	-mi-	.	.
.	.	.	.	.	16b\	.	.	.	.	.	.	.	.	.	.	.
8G\J	.	8GG\J	8b\J	.	16ee\	.	8G\	tu-	8B\	tu-	8g\	tu-	.	.	.	.
.	.	.	.	.	16gg\JJ	.	.	.	.	.	.	.	.	.	.	.
=12	=12	=12	=12	=12	=12	=12	=12	=12	=12	=12	=12	=12	=12	=12	=12	=12
8G\L	.	8GG\L	8a/L	.	16cc#X\LL	.	4G\	-o-	4A/	-o-	4e\	-o-	4cc#X\	-co-	1r	1r
.	.	.	.	.	16a\	.	.	.	.	.	.	.	.	.	.	.
8G\	4 2	8GG\	8a/	.	16cc#\	.	.	.	.	.	.	.	.	.	.	.
.	.	.	.	.	16ee\JJ	.	.	.	.	.	.	.	.	.	.	.
!	!	!	!	!	!	!	!	!	!	!	!	!	!LO:LB:g=original	!	!	!
8Fn\	6	8FFn\	8a/	.	16dd\LL	.	8F\	-rum	8A/	-rum	8fn\	-rum	8dd\	-rum	.	.
.	.	.	.	.	16a\	.	.	.	.	.	.	.	.	.	.	.
8F\J	.	8FF\J	8a/J	.	16dd\	.	8F\	tu-	8A/	tu-	8f\	tu-	8dd\	tu-	.	.
.	.	.	.	.	16ffn\JJ	.	.	.	.	.	.	.	.	.	.	.
8F\L	.	8FF\L	8g/L	.	16b\LL	.	4F\	.	2G/	-o-	4d\	-o-	4b\	-o-	.	.
.	.	.	.	.	16g\	.	.	.	.	.	.	.	.	.	.	.
8F\	4 2	8FF\	8b/	.	16b\	.	.	.	.	.	.	.	.	.	.	.
.	.	.	.	.	16dd\JJ	.	.	.	.	.	.	.	.	.	.	.
8E\	6	8EE\	8g/	.	16cc#\LL	.	4E\	-o-	.	.	8e\L	.	8ccn\	-rum	.	.
.	.	.	.	.	16g\	.	.	.	.	.	.	.	.	.	.	.
8E\J	.	8EE\J	8cc/J	.	16cc#\	.	.	.	.	.	8g\J	.	8cc\	tu-	.	.
.	.	.	.	.	16ee\JJ	.	.	.	.	.	.	.	.	.	.	.
=13	=13	=13	=13	=13	=13	=13	=13	=13	=13	=13	=13	=13	=13	=13	=13	=13
!	!	!	!	!	!	!	!	!	!	!	!	!	!LO:TX:t=P:problem:mixed beam	!	!	!
8D/L	1	8DD/L	8dd\L	.	16ff\LL	.	8D/L	.	4A\	.	(4.d\	.	8ff\L	-o-	16dd\LL	8ff\L
.	.	.	.	.	16ff\	.	.	.	.	.	.	.	.	.	16dd\	.
8C/	.	8CC/	8dd\	.	16ff\	.	8C/	.	.	.	.	.	8g/J	.	16dd\	8ff\
.	.	.	.	.	16ff\JJ	.	.	.	.	.	.	.	.	.	16dd\JJ	.
!	!	!	!	!	!LO:TX:t=P:problem:mixed beam	!	!	!	!	!	!	!	!	!	!LO:LB:g=original	!
8BB/	6 5	8BBB/	8dd\	.	16g/LL	.	8BB/	.	4d\	.	.	.	4ff\	.	16dd\LL	8ff\
.	.	.	.	.	16ff\	.	.	.	.	.	.	.	.	.	16dd\	.
8GG/J	.	8GGG/J	8dd\J	.	16ff\	.	8GG/J	.	.	.	8g\)	.	.	.	16dd\	8ff\J
.	.	.	.	.	16ff\JJ	.	.	.	.	.	.	.	.	.	16dd\JJ	.
!	!	!	!	!	!LO:LB:g=original	!	!LO:LB:g=original	!	!LO:LB:g=original	!	!	!	!	!	!	!LO:LB:g=original
4C/	4 9	4CC/	16dd\LL	.	16ff\LL	.	4C/	-rum	16d\LL	.	4g\	-rum	16ff\LL	.	16dd\LL	16ff\LL
.	8 3	.	16cc\	.	16ee\	.	.	.	16c\JJ	.	.	.	16ee\J	.	16cc\	16ee\
.	.	.	16cc\	.	16ee\	.	.	.	8c\	-rum	.	.	8ee\J	.	16cc\	16ee\
.	.	.	16cc\JJ	.	16ee\JJ	.	.	.	.	.	.	.	.	.	16cc\JJ	16dd\JJ
!LO:LB:g=original	!	!	!	!	!	!	!	!	!	!	!	!	!	!	!	!
8r	.	8r	8cc\L	.	16ee\LL	.	8r	.	8r	.	8r	.	8ee\L	.	8.cc\L	8ee\L
.	.	.	.	.	16ee\	.	.	.	.	.	.	.	.	.	.	.
*	*	*	*	*	*	*	*	*	*	*ij	*	*ij	*	*	*	*
8F\	65	8FF\	8a\J	.	16dd\	.	8F\	tu-	8f\	tu-	8a\	tu-	16dd\L	.	.	16dd\L
.	.	.	.	.	16cc\JJ	.	.	.	.	.	.	.	16cc\JJ	.	16cc\Jk	16cc\JJ
!	!	!	!	!	!	!	!	!	!	!	!LO:LB:g=original	!	!	!	!	!
=14	=14	=14	=14	=14	=14	=14	=14	=14	=14	=14	=14	=14	=14	=14	=14	=14
!LO:TX:t=P:problem:mixed beam	!	!LO:TX:t=P:problem:mixed beam	!	!	!LO:TX:t=P:problem:mixed beam	!	!LO:TX:t=P:problem:mixed beam	!	!	!	!	!	!	!	!	!
*	*	*	*	*	*	*	*	*	*	*	*2\right	*	*	*	*	*
8G\L	.	8GG\L	8g\L	.	8b\L	.	8G\L	-o-	(8d\L	-o-	2g\	-o-	8b\L	.	8g/L	8g/L
8GG/	.	8GGG/	8cc\J	.	8cc\	.	8E\	.	8e\J)	.	.	.	8cc\J	.	8g/	8cc/J
8G\	5 4	8GG\	8.cc\L	.	8d/	.	8G\	.	4d\	.	.	.	8cc\L	.	8g/	8.dd\L
8GG/J	3	8GGG/J	.	.	8b\J	.	8GG/J	.	.	.	.	.	8b\J	.	8g/J	.
.	.	.	16bt\Jk	.	.	.	.	.	.	.	.	.	.	.	.	16dd\Jk
!	!	!	!LO:LB:g=original	!	!	!	!	!	!	!	!	!	!	!	!	!LO:TX:t=P:problem:mixed beam
8C\L	.	8CC\L	8cc\L	.	16cc\LL	.	8C/	-rum	8e\	-rum	8g\	-rum	8cc\	-rum	8e/L	8cc\L
.	.	.	.	.	16gg\	.	.	.	.	.	.	.	.	.	.	.
*	*	*	*	*	*	*	*	*	*	*Xij	*	*Xij	*	*	*	*
8A\	#7	8AA\	16cc#X\L	.	16gg\	.	8A\	te-	8e\	te-	8g\	te-	8cc#X\	te-	8e/	8e/
.	.	.	16cc#\JJ	.	16gg\JJ	.	.	.	.	.	.	.	.	.	.	.
8A\	.	8AA\	16cc#\LL	.	16gg\LL	.	8A\	-cum	8c#X\	-cum	8g\	-cum	8cc#\	-cum	8e/	8e/
.	.	.	16ee\	.	16gg\	.	.	.	.	.	.	.	.	.	.	.
8A\J	.	8AA\J	16ee\	.	16gg\	.	8A\	prin-	8A/	prin-	8g\	prin-	8ee\	prin-	8e/J	8e/J
.	.	.	16ee\JJ	.	16gg\JJ	.	.	.	.	.	.	.	.	.	.	.
!	!	!	!	!	!	!	!	!	!	!	!	!	!LO:LB:g=original	!	!	!
=15	=15	=15	=15	=15	=15	=15	=15	=15	=15	=15	=15	=15	=15	=15	=15	=15
!	!	!	!	!	!	!	!	!	!	!	!	!	!	!	!LO:TX:a:t=2	!LO:TX:a:t=2
8D/L	4 9	8DD\L	16ee\LL	.	16gg\LL	.	8D/	-ci-	8A/	-ci-	16g\	-ci-	16ee\	-ci-	0r	0r
.	.	.	16dd\	.	16ff\	.	.	.	.	.	16f\	-pi-	16dd\	-pi-	.	.
8D/	.	8DD\	16dd\	.	16ff\	.	16D/	-pi-	16A/	-pi-	8f\	-um	8dd\	-um	.	.
.	.	.	16dd\JJ	.	16ff\JJ	.	16D/	-um	16A/	-um	.	.	.	.	.	.
8D/	4 8	8DD\	16dd\LL	.	16ff\LL	.	8r	.	8r	.	8r	.	8r	.	.	.
.	.	.	16dd\	.	16ff\	.	.	.	.	.	.	.	.	.	.	.
8D/J	.	8DD\J	16dd\	.	16ff\	.	8D/	in	8A/	in	8f\	in	8dd\	in	.	.
.	.	.	16dd\JJ	.	16ff\JJ	.	.	.	.	.	.	.	.	.	.	.
!	!	!	!	!	!LO:TX:t=P:problem:mixed beam	!	!	!	!	!	!	!	!	!	!	!
8G\L	.	8GG\L	16b\LL	.	16ff\LL	.	8G\	di-	8B\	di-	8f\	di-	8b\	di-	.	.
.	.	.	16dd\	.	16g/	.	.	.	.	.	.	.	.	.	.	.
!	!	!	!	!	!	!	!	!	!LO:LB:g=original	!	!	!	!	!	!	!
8G\	7	8GG\	16dd\	.	16g/	.	16G\	-e	16d\	-e	16f\	-e	16b\	-e	.	.
.	.	.	16dd\JJ	.	16g/JJ	.	16G\	vir-	16d\	vir-	16f\	vir-	16b\	vir-	.	.
!	!	!	!	!	!LO:TX:t=P:problem:mixed beam	!	!	!	!	!	!	!	!	!	!	!
8G\	.	8GG\	16dd\LL	.	16g/LL	.	8G\	-tu-	8d\	-tu-	8f\	-tu-	8b\	-tu-	.	.
.	.	.	16dd\	.	16ff\	.	.	.	.	.	.	.	.	.	.	.
8G\J	.	8GG\J	16dd\	.	16ff\	.	8G\	-tis	8G/	-tis	8f\	-tis	8dd\	-tis	.	.
.	.	.	16dd\JJ	.	16ff\JJ	.	.	.	.	.	.	.	.	.	.	.
!	!	!LO:LB:g=original	!	!	!	!	!	!	!	!	!	!	!	!	!	!
=16	=16	=16	=16	=16	=16	=16	=16	=16	=16	=16	=16	=16	=16	=16	=16	=16
8C\L	4 9	8CC\L	16cc\LL	.	16ff\LL	.	8C/	tu-	8G/	tu-	16f\LL	tu-	16dd\LL	tu-	.	.
.	.	.	16cc\	.	16ee\	.	.	.	.	.	16e\JJ	.	16cc\JJ	.	.	.
8C\	3 8	8CC\	16cc\	.	16ee\	.	8C/	-ae	8G/	-ae	8e\	-ae	8cc\	-ae	.	.
.	.	.	16cc\JJ	.	16ee\JJ	.	.	.	.	.	.	.	.	.	.	.
!	!	!	!	!	!LO:LB:g=original	!	!LO:LB:g=original	!	!	!	!	!	!	!	!	!
8D\	7	8DD\	16cc\LL	.	16ff\LL	.	8D/	in	8r	.	8f\	in	8cc\	in	.	.
.	.	.	16cc\	.	16ff\	.	.	.	.	.	.	.	.	.	.	.
8E\J	6	8EE\J	16cc\	.	16gg\	.	8E\	splen-	16c\	in	8g\	splen-	8cc\	splen-	.	.
.	.	.	16cc\JJ	.	16gg\JJ	.	.	.	16c\	splen-	.	.	.	.	.	.
!	!	!	!	!	!	!	!	!	!	!	!LO:LB:g=original	!	!	!	!	!
8F\L	.	8FF\L	16cc\LL	.	8aa\L	.	8F\	-do-	8A\	-do-	8a\	-do-	8cc\	-do-	.	.
.	.	.	16cc\	.	.	.	.	.	.	.	.	.	.	.	.	.
8D\	.	8DD\	16dd\	.	8ff\	.	8D/	-ri-	8d\	-ri-	8f\	-ri-	8dd\	-ri-	.	.
.	.	.	16dd\JJ	.	.	.	.	.	.	.	.	.	.	.	.	.
8E\	.	8EE\	16dd\LL	.	8gg\	.	8E\	-bus	8c\	-bus	8g\	-bus	8dd\	-bus	.	.
.	.	.	16dd\	.	.	.	.	.	.	.	.	.	.	.	.	.
8F\J	6	8FF\J	16dd\	.	8aa\J	.	8F\	san-	8A\	San-	8a\	san-	8dd\	san-	.	.
.	.	.	16dd\JJ	.	.	.	.	.	.	.	.	.	.	.	.	.
!	!	!	!LO:LB:g=original	!	!	!	!	!	!	!	!	!	!LO:LB:g=original	!	!	!
=17	=17	=17	=17	=17	=17	=17	=17	=17	=17	=17	=17	=17	=17	=17	=17	=17
8G\L	.	8GG\L	8b\L	.	16dd\LL	.	8G\L	-cto-	8B\L	-cto-	4g\	-cto-	8b\L	-cto-	8g/L	8dd\L
.	.	.	.	.	16gg\	.	.	.	.	.	.	.	.	.	.	.
8A\	.	8AA\	8cc\	.	16gg\	.	8A\J	.	8A\J	.	.	.	8cc\J	.	8g/	8dd\
.	.	.	.	.	16gg\JJ	.	.	.	.	.	.	.	.	.	.	.
8B\	-5	8BB\	8dd\	.	16gg\LL	.	8B\	-rum	8G/	-rum	8g\	-rum	8dd\	-rum	8g/	8dd\
.	.	.	.	.	16ff\	.	.	.	.	.	.	.	.	.	.	.
8G\J	7	8GG\J	8b\J	.	16ff\	.	8G\	ex	8B\	ex	8g\	ex	8b\	ex	8g/J	8dd\J
.	.	.	.	.	16ff\JJ	.	.	.	.	.	.	.	.	.	.	.
!	!	!	!	!	!	!	!	!	!LO:LB:g=original	!	!	!	!	!	!	!
8c\L	.	8C\L	8g\L	.	8ee\L	.	8c\	u-	8c\	u-	8a\	u-	8ee\	u-	8g/L	8ee\L
8G\	.	8GG\	8b\	.	8dd\	.	16G\	-tero	16B\	-te-	16a\	-te-	16dd\	-te-	8g/	8dd\
.	.	.	.	.	.	.	16G\	an-	16B\	-ro	16a\	-ro	16dd\	-ro	.	.
8A\	-3	8AA\	8cc\	.	8cc\	.	8A\	-te	8A\	an-	8e\	an-	8cc\	an-	8e/	8cc\
8E\J	6	8EE\J	8cc\J	.	8gg\J	.	16E\	lu-	16c\	-te	16g\	-te	16cc\	-te	8cc/J	8gg\J
.	.	.	.	.	.	.	16E\	-ci-	16c\	lu-	16g\	lu-	16cc\	lu-	.	.
!LO:LB:g=original	!	!	!	!	!	!	!	!	!	!	!	!	!	!	!	!
=18	=18	=18	=18	=18	=18	=18	=18	=18	=18	=18	=18	=18	=18	=18	=18	=18
!	!	!	!	!	!	!	!	!	!	!	!	!	!	!	!LO:TX:t=P:problem:mixed beam	!
8F\L	.	8FF\L	8cc\L	.	8aa\L	.	8F\	-fe-	8A\	-ci-	8a\	-ci-	8cc\	-ci-	8cc\L	8ff\L
8D\	.	8DD\	8dd\	.	8ff\	.	16D/	-rum	16d\	-fe-	16a\	-fe-	16dd\	-fe-	8cc\	8ff\
.	.	.	.	.	.	.	16D/	.	16d\	-rum	16a\	-rum	16dd\	-rum	.	.
!	!	!	!	!	!	!	!LO:LB:g=original	!	!	!	!	!	!	!	!	!
8G\	.	8GG\	8b\	.	8dd\	.	8G\L	ge-	8d\L	ge-	4g\	ge-	8b\L	ge-	8g/	8dd\
8GG\J	.	8GGG\J	8cc\J	.	8ee\J	.	8C\	.	8e\J	.	.	.	8cc\	.	8cc/J	8ee\J
!LO:TX:t=P:problem:mixed beam	!	!LO:TX:t=P:problem:mixed beam	!	!	!	!	!	!	!	!	!	!	!	!	!	!
8G\L	.	8GG\L	8b\L	.	8dd\L	.	8G\	.	8d\L	.	8g\	.	8b\	.	8g/L	8dd\L
!	!	!	!	!	!	!	!	!	!	!	!LO:LB:g=original	!	!	!	!	!
8F\	7 5	8FF\	8cc\	.	8ee\J	.	8F\	.	8e\J	.	8a\L	.	8cc\J	.	8cc/	8ee\J
8G\	6 4	8GG\	8cc\	.	8ee\L	.	8G\J	.	8e\	.	8g\J	.	8cc\	.	8cc/	8ee\L
8GG/J	3	8GGG/J	8b\J	.	16dd\L	.	16GG/	-nu-	16d\	-nu-	16g\	-nu-	16b\	-nu-	8g/J	16dd\L
.	.	.	.	.	16cc\JJ	.	16GG/	-i	16d\	-i	16g\	-i	16b\	-i	.	16cc\JJ
!	!	!	!	!	!	!	!	!	!	!	!	!	!LO:LB:g=original	!	!	!
=19	=19	=19	=19	=19	=19	=19	=19	=19	=19	=19	=19	=19	=19	=19	=19	=19
*	*	*	*2\right	*	*2\right	*	*	*	*2\right	*	*	*	*	*	*	*2\right
1C	.	1CC	2cc\	.	2cc\	.	2C/	te.	2e\	te:	2g\	te.	2cc\	te.	2e/	2cc\
.	.	.	2r	.	2r	.	2r	.	2r	.	2r	.	2r	.	2r	2r
!	!	!LO:LB:g=original	!LO:LB:g=original	!	!LO:LB:g=original	!	!	!	!LO:LB:g=original	!	!LO:LB:g=original	!	!	!	!LO:LB:g=original	!LO:LB:g=original
=20||	=20||	=20||	=20||	=20||	=20||	=20||	=20||	=20||	=20||	=20||	=20||	=20||	=20||	=20||	=20||	=20||
*k[f#]	*	*k[f#]	*k[f#]	*	*k[f#]	*	*k[f#]	*	*k[f#]	*	*k[f#]	*	*k[f#]	*	*k[f#]	*k[f#]
*M3/4	*	*M3/4	*M3/4	*	*M3/4	*	*M3/4	*	*M3/4	*	*M3/4	*	*M3/4	*	*M3/4	*M3/4
!LO:TX:a:t=poco Vivace	!	!LO:TX:a:t=poco Vivace	!	!	!LO:TX:a:t=Poco Vivace	!	!LO:TX:a:t=Juravit Tacet	!	!LO:TX:a:t=Juravit Dominus Tacet	!	!	!	!LO:TX:a:t=Poco Solo	!	!LO:TX:a:t=Juravit Gloria\nTacet	!LO:TX:a:t=Juravit et Gloria\nTacet
!LO:TX:b:t=Juravit	!	!LO:TX:b:t=Juravit	!	!	!	!	!	!	!	!	!LO:N:vis=00	!	!LO:N:vis=00	!	!	!
4G\	.	4GG\	8.gg\L	.	8.gg\L	.	2.ryy	.	2.ryy	.	0.r	.	0.r	.	2.ryy	2.ryy
.	.	.	16gg\K	.	16gg\K	.	.	.	.	.	.	.	.	.	.	.
!LO:TX:a:t=Solo	!	!LO:TX:a:t=Solo	!	!	!	!	!	!	!	!	!	!	!	!	!	!
4r	.	4r	8.dd\	.	8.dd\	.	.	.	.	.	.	.	.	.	.	.
.	.	.	16dd\K	.	16dd\K	.	.	.	.	.	.	.	.	.	.	.
4r	.	4r	8.b\	.	8.b\	.	.	.	.	.	.	.	.	.	.	.
.	.	.	16b\Jk	.	16b\Jk	.	.	.	.	.	.	.	.	.	.	.
=21	=21	=21	=21	=21	=21	=21	=21	=21	=21	=21	=21	=21	=21	=21	=21	=21
8GG/L	.	8GGG/L	8G/L	.	8G/L	.	2.ryy	.	2.ryy	.	.	.	.	.	2.ryy	2.ryy
16AA/L	.	16AAA/L	16A/L	.	16A/L	.	.	.	.	.	.	.	.	.	.	.
16BB/JJ	.	16BBB/JJ	16B/JJ	.	16B/JJ	.	.	.	.	.	.	.	.	.	.	.
!LO:TX:a:t=|	!	!	!	!	!	!	!	!	!	!	!	!	!	!	!	!
16C\LL	.	16CC\LL	16c/LL	.	16c/LL	.	.	.	.	.	.	.	.	.	.	.
!LO:TX:a:t=|	!	!	!	!	!	!	!	!	!	!	!	!	!	!	!	!
16D\	.	16DD\	16d/	.	16d/	.	.	.	.	.	.	.	.	.	.	.
!LO:TX:a:t=|	!	!	!	!	!	!	!	!	!	!	!	!	!	!	!	!
16E\	.	16EE\	16e/	.	16e/	.	.	.	.	.	.	.	.	.	.	.
!LO:TX:a:t=|	!	!	!	!	!	!	!	!	!	!	!	!	!	!	!	!
16F#\JJ	.	16FF#\JJ	16f#/JJ	.	16f#/JJ	.	.	.	.	.	.	.	.	.	.	.
!LO:TX:a:t=|	!	!	!	!	!	!	!	!	!	!	!	!	!	!	!	!
4G\	.	4GG\	8g\L	.	8g/L	.	.	.	.	.	.	.	.	.	.	.
.	.	.	8b\J	.	[8dd/J	.	.	.	.	.	.	.	.	.	.	.
=22	=22	=22	=22	=22	=22	=22	=22	=22	=22	=22	=22	=22	=22	=22	=22	=22
4G\	.	4GG\	8b\	.	8dd\]	.	2.ryy	.	2.ryy	.	.	.	.	.	2.ryy	2.ryy
.	.	.	4cc\	.	4ee\	.	.	.	.	.	.	.	.	.	.	.
4r	.	4r	.	.	.	.	.	.	.	.	.	.	.	.	.	.
.	.	.	8b\L	.	8dd\L	.	.	.	.	.	.	.	.	.	.	.
4r	.	4r	8cc\	.	8ee\	.	.	.	.	.	.	.	.	.	.	.
.	.	.	8b\J	.	8dd\J	.	.	.	.	.	.	.	.	.	.	.
=23	=23	=23	=23	=23	=23	=23	=23	=23	=23	=23	=23	=23	=23	=23	=23	=23
!	!	!	!	!	!LO:TX:t=P:problem:mixed beam	!	!	!	!	!	!	!	!	!	!	!
!	!	!	!	!	!LO:TX:a:t=|	!	!	!	!	!	!	!	!	!	!	!
8r	.	8r	8a/L	.	8cc\L	.	2.ryy	.	2.ryy	.	.	.	.	.	2.ryy	2.ryy
!LO:TX:a:t=|	!	!	!	!	!LO:TX:b:t=|	!	!	!	!	!	!	!	!	!	!	!
8D\L	.	8DD\L	8d/	.	8d/	.	.	.	.	.	.	.	.	.	.	.
!LO:TX:a:t=|	!	!	!	!	!LO:TX:b:t=|	!	!	!	!	!	!	!	!	!	!	!
8F#\	.	8FF#\	8f#/	.	8f#/	.	.	.	.	.	.	.	.	.	.	.
!LO:TX:a:t=|	!	!	!	!	!LO:TX:b:t=|	!	!	!	!	!	!	!	!	!	!	!
8A\	.	8AA\	8a/	.	8a/	.	.	.	.	.	.	.	.	.	.	.
!LO:TX:a:t=|	!	!	!	!	!LO:TX:b:t=|	!	!	!	!	!	!	!	!	!	!	!
8d\	.	8D\	8dd/	.	8dd/	.	.	.	.	.	.	.	.	.	.	.
!LO:TX:a:t=|	!	!	!	!	!LO:TX:b:t=|	!	!	!	!	!	!	!	!	!	!	!
8A\J	.	8AA\J	8a/J	.	8a/J	.	.	.	.	.	.	.	.	.	.	.
!LO:LB:g=original	!	!	!	!	!	!	!	!	!	!	!	!	!	!	!	!
=24	=24	=24	=24	=24	=24	=24	=24	=24	=24	=24	=24	=24	=24	=24	=24	=24
!	!	!	!	!	!	!	!	!	!	!	!LO:N:vis=00	!	!LO:N:vis=00	!	!	!
4D\	.	4DD\	8d/	.	8d/	.	2.ryy	.	2.ryy	.	0.r	.	0.r	.	2.ryy	2.ryy
.	.	.	4a/	.	4cc\	.	.	.	.	.	.	.	.	.	.	.
4r	.	4r	.	.	.	.	.	.	.	.	.	.	.	.	.	.
.	.	.	16g/LL	.	16b\LL	.	.	.	.	.	.	.	.	.	.	.
.	.	.	16a/JJ	.	16cc\JJ	.	.	.	.	.	.	.	.	.	.	.
!	!	!	!	!	!LO:LB:g=original	!	!	!	!	!	!	!	!	!	!	!
4r	.	4r	8b/L	.	8dd\L	.	.	.	.	.	.	.	.	.	.	.
.	.	.	8a/J	.	8cc\J	.	.	.	.	.	.	.	.	.	.	.
!	!	!	!LO:LB:g=original	!	!	!	!	!	!	!	!	!	!	!	!	!
=25	=25	=25	=25	=25	=25	=25	=25	=25	=25	=25	=25	=25	=25	=25	=25	=25
8r	.	8r	8g/L	.	8b/L	.	2.ryy	.	2.ryy	.	.	.	.	.	2.ryy	2.ryy
!LO:TX:b:t=|	!	!	!	!	!	!	!	!	!	!	!	!	!	!	!	!
8GG/L	.	8GGG/L	8G/	.	8G/	.	.	.	.	.	.	.	.	.	.	.
!LO:TX:b:t=|	!	!	!	!	!	!	!	!	!	!	!	!	!	!	!	!
8BB/	.	8BBB/	8B/	.	8B/	.	.	.	.	.	.	.	.	.	.	.
!LO:TX:b:t=|	!	!	!	!	!	!	!	!	!	!	!	!	!	!	!	!
8D/	.	8DD/	8d/	.	8d/	.	.	.	.	.	.	.	.	.	.	.
!LO:TX:b:t=|	!	!	!	!	!	!	!	!	!	!	!	!	!	!	!	!
8G/	.	8GG/	8g/	.	8g/	.	.	.	.	.	.	.	.	.	.	.
!LO:TX:b:t=|	!	!	!	!	!	!	!	!	!	!	!	!	!	!	!	!
8D/J	.	8DD/J	8d/J	.	8d/J	.	.	.	.	.	.	.	.	.	.	.
!	!	!LO:LB:g=original	!	!	!	!	!	!	!	!	!	!	!	!	!	!
=26	=26	=26	=26	=26	=26	=26	=26	=26	=26	=26	=26	=26	=26	=26	=26	=26
!LO:TX:t=P:problem:mixed beam	!	!LO:TX:t=P:problem:mixed beam	!	!	!	!	!	!	!	!	!	!	!	!	!	!
8GG/L	.	8GGG/L	8G/	.	8G/	.	2.ryy	.	2.ryy	.	.	.	.	.	2.ryy	2.ryy
8GG/	.	8GGG/	4b/	.	4dd\	.	.	.	.	.	.	.	.	.	.	.
8GG/	.	8GGG/	.	.	.	.	.	.	.	.	.	.	.	.	.	.
8GG/	.	8GGG/	4a/	.	4cc\	.	.	.	.	.	.	.	.	.	.	.
8GG/	.	8GGG/	.	.	.	.	.	.	.	.	.	.	.	.	.	.
8G\J	.	8GG\J	8g/	.	8b\	.	.	.	.	.	.	.	.	.	.	.
=27	=27	=27	=27	=27	=27	=27	=27	=27	=27	=27	=27	=27	=27	=27	=27	=27
8E\	6\	8EE\	8g/	.	8cc#X\	.	2.ryy	.	2.ryy	.	.	.	.	.	2.ryy	2.ryy
4D\	.	4DD\	4f#/	.	4dd\	.	.	.	.	.	.	.	.	.	.	.
8E\L	6\:	8EE\L	8g/L	.	8cc#X\L	.	.	.	.	.	.	.	.	.	.	.
8E\	.	8EE\	8g/	.	8cc#\	.	.	.	.	.	.	.	.	.	.	.
8E\J	.	8EE\J	8g/J	.	8cc#\J	.	.	.	.	.	.	.	.	.	.	.
=28	=28	=28	=28	=28	=28	=28	=28	=28	=28	=28	=28	=28	=28	=28	=28	=28
!	!	!	!	!	!	!	!	!	!	!	!LO:N:vis=00	!	!LO:N:vis=0	!	!	!
8E\L	.	8EE\L	8g/L	.	8cc#X\	.	2.ryy	.	2.ryy	.	0.r	.	1.r	.	2.ryy	2.ryy
8D\	.	8DD\	8f#/	.	4dd\	.	.	.	.	.	.	.	.	.	.	.
8D\	.	8DD\	8f#/	.	.	.	.	.	.	.	.	.	.	.	.	.
8F#\	-5	8FF#\	8a/	.	8ccn\L	.	.	.	.	.	.	.	.	.	.	.
8F#\	.	8FF#\	8a/	.	8cc\	.	.	.	.	.	.	.	.	.	.	.
8F#\J	.	8FF#\J	8a/J	.	8cc\J	.	.	.	.	.	.	.	.	.	.	.
=29	=29	=29	=29	=29	=29	=29	=29	=29	=29	=29	=29	=29	=29	=29	=29	=29
!	!	!	!	!	!LO:TUP:t:b:problem:klamra łukowa	!	!	!	!	!	!	!	!	!	!	!
4G\	.	4GG\	8g/L	.	12b/L	.	2.ryy	.	2.ryy	.	.	.	.	.	2.ryy	2.ryy
.	.	.	.	.	12a/	.	.	.	.	.	.	.	.	.	.	.
.	.	.	8B/J	.	.	.	.	.	.	.	.	.	.	.	.	.
.	.	.	.	.	12g/J	.	.	.	.	.	.	.	.	.	.	.
4d\	.	4D\	4A/	.	4.f#/	.	.	.	.	.	.	.	.	.	.	.
4D/	.	4DD/	4A/	.	.	.	.	.	.	.	.	.	.	.	.	.
.	.	.	.	.	8f#/	.	.	.	.	.	.	.	.	.	.	.
!	!	!	!	!	!LO:LB:g=original	!	!	!	!	!	!	!	!	!	!	!
=30	=30	=30	=30	=30	=30	=30	=30	=30	=30	=30	=30	=30	=30	=30	=30	=30
4G\	.	4GG\	4B/	.	4g/	.	2.ryy	.	2.ryy	.	.	.	4gg\	Ju-	2.ryy	2.ryy
4r	.	4r	4r	.	4r	.	.	.	.	.	.	.	4dd\	-ra-	.	.
!LO:TX:a:t=vox	!	!	!	!	!	!	!	!	!	!	!	!	!	!	!	!
4r	.	4r	4r	.	4r	.	.	.	.	.	.	.	4b\	-vit	.	.
!LO:LB:g=original	!	!	!	!	!	!	!	!	!	!	!	!	!	!	!	!
=31	=31	=31	=31	=31	=31	=31	=31	=31	=31	=31	=31	=31	=31	=31	=31	=31
!	!	!	!	!	!	!LO:DY:a:t=pia&colon;	!	!	!	!	!	!	!	!	!	!
8E\L	.	8EE\L	8g/L	.	8b\L	p	2.ryy	.	2.ryy	.	.	.	4.g\	Do-	2.ryy	2.ryy
8E\	.	8EE\	8g/	.	8b\	.	.	.	.	.	.	.	.	.	.	.
8E\	.	8EE\	8g/	.	8b\	.	.	.	.	.	.	.	.	.	.	.
8E\	.	8EE\	8g/	.	8b\	.	.	.	.	.	.	.	8g\	-mi-	.	.
8E\	.	8EE\	8g/	.	8b\	.	.	.	.	.	.	.	4g\	-nus	.	.
8E\J	.	8EE\J	8g/J	.	8b\J	.	.	.	.	.	.	.	.	.	.	.
!	!	!LO:LB:g=original	!LO:LB:g=original	!	!	!	!	!	!	!	!	!	!	!	!	!
=32	=32	=32	=32	=32	=32	=32	=32	=32	=32	=32	=32	=32	=32	=32	=32	=32
!	!	!	!	!	!	!	!	!	!	!	!LO:N:vis=00	!	!	!	!	!
8BB/L	6	8BBB/L	4g/	.	8dd\	.	2.ryy	.	2.ryy	.	0.r	.	8dd\	et	2.ryy	2.ryy
8C/	.	8CC/	.	.	4ee\	.	.	.	.	.	.	.	4ee\	n(on)	.	.
8C/	6	8CC/	4g/	.	.	.	.	.	.	.	.	.	.	.	.	.
8BB/	.	8BBB/	.	.	8dd\L	.	.	.	.	.	.	.	8dd\	.	.	.
8C/	6	8CC/	4g/	.	8ee\	.	.	.	.	.	.	.	8ee\	poe-	.	.
8BB/J	.	8BBB/J	.	.	8dd\J	.	.	.	.	.	.	.	8dd\	-ni-	.	.
=33	=33	=33	=33	=33	=33	=33	=33	=33	=33	=33	=33	=33	=33	=33	=33	=33
!LO:TX:a:t=|	!	!	!	!	!LO:TX:b:t=|	!	!	!	!	!	!	!	!	!	!	!
*	*	*	*	*	*	*	*	*	*	*	*	*	*2\right	*	*	*
8AA\L	6\	8AAA\L	8f#/L	.	8cc/L	.	2.ryy	.	2.ryy	.	.	.	2cc\	-te-	2.ryy	2.ryy
!LO:TX:a:t=|	!	!	!	!	!LO:TX:b:t=|	!	!	!	!	!	!	!	!	!	!	!
8D\	.	8DD\	8d/	.	8d/	.	.	.	.	.	.	.	.	.	.	.
!LO:TX:a:t=|	!	!	!	!	!LO:TX:b:t=|	!	!	!	!	!	!	!	!	!	!	!
8F#\	.	8FF#\	8f#/	.	8f#/	.	.	.	.	.	.	.	.	.	.	.
!LO:TX:a:t=|	!	!	!	!	!LO:TX:b:t=|	!	!	!	!	!	!	!	!	!	!	!
8A\	.	8AA\	8a/	.	8a/	.	.	.	.	.	.	.	.	.	.	.
!LO:TX:a:t=|	!	!	!	!	!LO:TX:b:t=|	!	!	!	!	!	!	!	!	!	!	!
8d\	.	8D\	8dd/	.	8dd/	.	.	.	.	.	.	.	4cc\	-bit	.	.
!LO:TX:a:t=|	!	!	!	!	!LO:TX:b:t=|	!	!	!	!	!	!	!	!	!	!	!
8A\J	.	8AA\J	8d/J	.	8a/J	.	.	.	.	.	.	.	.	.	.	.
!	!	!	!	!	!	!	!	!	!	!	!	!	!LO:LB:g=original	!	!	!
=34	=34	=34	=34	=34	=34	=34	=34	=34	=34	=34	=34	=34	=34	=34	=34	=34
4D\	.	4DD\	8d/	.	8d/	.	2.ryy	.	2.ryy	.	.	.	8cc\	e-	2.ryy	2.ryy
.	.	.	4b\	.	4dd\	.	.	.	.	.	.	.	4dd\	-um	.	.
4r	.	4r	.	.	.	.	.	.	.	.	.	.	.	.	.	.
.	.	.	8a\L	.	8cc\L	.	.	.	.	.	.	.	8cc\	tu	.	.
4r	.	4r	8b\	.	8dd\	.	.	.	.	.	.	.	8dd\	es	.	.
.	.	.	8a\J	.	8cc\J	.	.	.	.	.	.	.	8cc\	Sa-	.	.
=35	=35	=35	=35	=35	=35	=35	=35	=35	=35	=35	=35	=35	=35	=35	=35	=35
!	!	!	!	!	!LO:TX:t=P:problem:mixed beam	!	!	!	!	!	!	!	!	!	!	!
8r	.	8r	8g/L	.	8b\L	.	2.ryy	.	2.ryy	.	.	.	4b\	-cer-	2.ryy	2.ryy
!LO:TX:b:t=|	!	!	!	!	!	!	!	!	!	!	!	!	!	!	!	!
8GG/L	.	8GGG/L	8G/	.	8G/	.	.	.	.	.	.	.	.	.	.	.
!LO:TX:b:t=|	!	!	!	!	!	!	!	!	!	!	!	!	!	!	!	!
8BB/	.	8BBB/	8B/	.	8B/	.	.	.	.	.	.	.	4b\	-dos	.	.
!LO:TX:b:t=|	!	!	!	!	!	!	!	!	!	!	!	!	!	!	!	!
8D/	.	8DD/	8d/	.	8d/	.	.	.	.	.	.	.	.	.	.	.
!LO:TX:b:t=|	!	!	!	!	!	!	!	!	!	!	!	!	!	!	!	!
8G/	.	8GG/	8g/	.	8g/	.	.	.	.	.	.	.	8b\	in	.	.
!LO:TX:b:t=|	!	!	!	!	!	!	!	!	!	!	!	!	!	!	!	!
8D/J	.	8DD/J	8d/J	.	8d/J	.	.	.	.	.	.	.	8b\	ae-	.	.
!	!	!	!	!	!LO:LB:g=original	!	!	!	!	!	!	!	!	!	!	!
=36	=36	=36	=36	=36	=36	=36	=36	=36	=36	=36	=36	=36	=36	=36	=36	=36
!	!	!	!	!	!LO:TX:t=P:problem:mixed beam	!	!	!	!	!	!LO:N:vis=00	!	!	!	!	!
4GG/	.	4GGG/	4G/	.	8G/L	.	2.ryy	.	2.ryy	.	0.r	.	4gg\	-ter-	2.ryy	2.ryy
.	.	.	.	.	8gg\J	.	.	.	.	.	.	.	.	.	.	.
4G\	6	4GG\	4b\	.	4ee\	.	.	.	.	.	.	.	8ee\	-num	.	.
.	.	.	.	.	.	.	.	.	.	.	.	.	8ee\	se-	.	.
4A\	#	4AA\	4ee\	.	4cc#X\	.	.	.	.	.	.	.	8ccX\	-cun-	.	.
.	.	.	.	.	.	.	.	.	.	.	.	.	8cc\	-dum	.	.
=37	=37	=37	=37	=37	=37	=37	=37	=37	=37	=37	=37	=37	=37	=37	=37	=37
4F#\	6	4FF#\	4a/	.	4.a\	.	2.ryy	.	2.ryy	.	.	.	4a\	or-	2.ryy	2.ryy
4E\	6\	4EE\	4g/	.	.	.	.	.	.	.	.	.	8b\L	-di-	.	.
.	.	.	.	.	16b\LL	.	.	.	.	.	.	.	8ccX\J	.	.	.
.	.	.	.	.	16cc#X\JJ	.	.	.	.	.	.	.	.	.	.	.
4D\	.	4DD\	4f#/	.	4dd\	.	.	.	.	.	.	.	4dd\	-nem	.	.
!	!	!	!	!	!	!	!	!	!	!	!	!	!LO:LB:g=original	!	!	!
=38	=38	=38	=38	=38	=38	=38	=38	=38	=38	=38	=38	=38	=38	=38	=38	=38
4G\	6	4GG\	4b/	.	4ee\	.	2.ryy	.	2.ryy	.	.	.	4ee\	Mel-	2.ryy	2.ryy
!LO:LB:g+original	!	!	!	!	!	!	!	!	!	!	!	!	!	!	!	!
8F#\L	6	8FF#\L	8a/L	.	8ff#\L	.	.	.	.	.	.	.	8ff\L	chi-	.	.
8G\J	.	8GG\J	8b/J	.	8dd\J	.	.	.	.	.	.	.	8dd\J	.	.	.
!LO:TX:t=P:problem:mixed beam	!	!LO:TX:t=P:problem:mixed beam	!	!	!	!	!	!	!	!	!	!	!	!	!	!
8A\L	#	8AA\L	4e/	.	8a/L	.	.	.	.	.	.	.	8a\L	-se-	.	.
8AA/J	.	8AAA/J	.	.	8cc#X/J	.	.	.	.	.	.	.	8ccX\J	.	.	.
!	!	!LO:LB:g=original	!LO:LB:g=original	!	!	!	!	!	!	!	!	!	!	!	!	!
=39	=39	=39	=39	=39	=39	=39	=39	=39	=39	=39	=39	=39	=39	=39	=39	=39
4D\	.	4DD\	4f#/	.	8.dd\L	.	2.ryy	.	2.ryy	.	.	.	4dd\	-dech.	2.ryy	2.ryy
.	.	.	.	.	16ddd\Jk	.	.	.	.	.	.	.	.	.	.	.
4r	.	4r	8.aa\L	.	8.aa\L	.	.	.	.	.	.	.	4r	.	.	.
.	.	.	16aa\K	.	16aa\K	.	.	.	.	.	.	.	.	.	.	.
4r	.	4r	8.ff#\	.	8.ff#\	.	.	.	.	.	.	.	4r	.	.	.
.	.	.	16ff#\Jk	.	16ff#\Jk	.	.	.	.	.	.	.	.	.	.	.
=40	=40	=40	=40	=40	=40	=40	=40	=40	=40	=40	=40	=40	=40	=40	=40	=40
!LO:TX:a:t=|	!	!	!	!	!	!	!	!	!	!	!LO:N:vis=00	!	!LO:N:vis=00	!	!	!
8D\L	.	8DD\L	8d/L	.	8d/L	.	2.ryy	.	2.ryy	.	0.r	.	0.r	.	2.ryy	2.ryy
!LO:TX:a:t=|	!	!	!	!	!	!	!	!	!	!	!	!	!	!	!	!
16E\L	.	16EE\L	16e/L	.	16e/L	.	.	.	.	.	.	.	.	.	.	.
!LO:TX:a:t=|	!	!	!	!	!	!	!	!	!	!	!	!	!	!	!	!
16F#\JJ	.	16FF#\JJ	16f#/JJ	.	16f#/JJ	.	.	.	.	.	.	.	.	.	.	.
!LO:TX:a:t=|	!	!	!	!	!	!	!	!	!	!	!	!	!	!	!	!
16G\LL	.	16GG\LL	16g/LL	.	16g/LL	.	.	.	.	.	.	.	.	.	.	.
!LO:TX:a:t=|	!	!	!	!	!	!	!	!	!	!	!	!	!	!	!	!
16A\	.	16AA\	16a/	.	16a/	.	.	.	.	.	.	.	.	.	.	.
!LO:TX:a:t=|	!	!	!	!	!	!	!	!	!	!	!	!	!	!	!	!
16B\	.	16BB\	16b/	.	16b/	.	.	.	.	.	.	.	.	.	.	.
!LO:TX:a:t=|	!	!	!	!	!	!	!	!	!	!	!	!	!	!	!	!
16c#X\JJ	.	16C#X\JJ	16cc#X/JJ	.	16cc#X/JJ	.	.	.	.	.	.	.	.	.	.	.
!LO:TX:a:t=|	!	!	!	!	!	!	!	!	!	!	!	!	!	!	!	!
!LO:TX:t=P:problem:mixed beam	!	!LO:TX:t=P:problem:mixed beam	!	!	!	!	!	!	!	!	!	!	!	!	!	!
8d\L	.	8D\L	8dd\L	.	8dd\L	.	.	.	.	.	.	.	.	.	.	.
!LO:TX:a:t=|	!	!	!	!	!	!	!	!	!	!	!	!	!	!	!	!
8D/J	.	8DD/J	[8ff#\J	.	8aa\J	.	.	.	.	.	.	.	.	.	.	.
=41	=41	=41	=41	=41	=41	=41	=41	=41	=41	=41	=41	=41	=41	=41	=41	=41
!	!	!	!LO:TX:t=P:problem:mixed beam	!	!	!	!	!	!	!	!	!	!	!	!	!
4D\	.	4DD\	8ff#\L]	.	(8aa\L	.	2.ryy	.	2.ryy	.	.	.	.	.	2.ryy	2.ryy
.	.	.	8f#/	.	8a\)	.	.	.	.	.	.	.	.	.	.	.
4r	.	4r	8g/	.	(8b\	.	.	.	.	.	.	.	.	.	.	.
.	.	.	8f#/	.	8a\J)	.	.	.	.	.	.	.	.	.	.	.
!	!	!	!	!	!LO:LB:g=original	!	!	!	!	!	!	!	!	!	!	!
4r	.	4r	8g/	.	(8b\L	.	.	.	.	.	.	.	.	.	.	.
.	.	.	8f#/J	.	8a\J)	.	.	.	.	.	.	.	.	.	.	.
=42	=42	=42	=42	=42	=42	=42	=42	=42	=42	=42	=42	=42	=42	=42	=42	=42
8r	.	8r	8e/L	.	8g/L	.	2.ryy	.	2.ryy	.	.	.	.	.	2.ryy	2.ryy
!LO:TX:b:t=|	!	!	!	!	!	!	!	!	!	!	!	!	!	!	!	!
8AA/L	.	8AAA/L	8A/	.	8A/	.	.	.	.	.	.	.	.	.	.	.
!LO:TX:b:t=|	!	!	!	!	!	!	!	!	!	!	!	!	!	!	!	!
8C#X/	.	8CC#X/	8c#X/	.	8c#X/	.	.	.	.	.	.	.	.	.	.	.
!LO:TX:b:t=|	!	!	!	!	!	!	!	!	!	!	!	!	!	!	!	!
8E/	.	8EE/	8e/	.	8e/	.	.	.	.	.	.	.	.	.	.	.
!LO:TX:b:t=|	!	!	!	!	!	!	!	!	!	!	!	!	!	!	!	!
8A/	.	8AA/	8a/	.	8a/	.	.	.	.	.	.	.	.	.	.	.
!LO:TX:b:t=|	!	!	!	!	!	!	!	!	!	!	!	!	!	!	!	!
8E/J	.	8EE/J	8e/J	.	8e/J	.	.	.	.	.	.	.	.	.	.	.
=43	=43	=43	=43	=43	=43	=43	=43	=43	=43	=43	=43	=43	=43	=43	=43	=43
4AA/	#7	4AAA/	8A/L	.	8A/L	.	2.ryy	.	2.ryy	.	.	.	.	.	2.ryy	2.ryy
.	.	.	8e/	.	8g/	.	.	.	.	.	.	.	.	.	.	.
4r	.	4r	8e/	.	8g/	.	.	.	.	.	.	.	.	.	.	.
.	.	.	8e/	.	8g/	.	.	.	.	.	.	.	.	.	.	.
4r	.	4r	8e/	.	8g/	.	.	.	.	.	.	.	.	.	.	.
.	.	.	8e/J	.	8g/J	.	.	.	.	.	.	.	.	.	.	.
=44	=44	=44	=44	=44	=44	=44	=44	=44	=44	=44	=44	=44	=44	=44	=44	=44
!	!	!	!	!	!LO:TX:t=P:problem:mixed beam	!	!	!	!	!	!	!	!LO:N:vis=00	!	!	!
4D\	.	4DD\	4d/	.	8f#/L	.	2.ryy	.	2.ryy	.	2.r	.	0.r	.	2.ryy	2.ryy
.	.	.	.	.	8dd\J	.	.	.	.	.	.	.	.	.	.	.
4A\	5 4	4AA\	4d/	.	4e/	.	.	.	.	.	.	.	.	.	.	.
4AA/	#	4AAA/	4e/	.	4cc#Xt\	.	.	.	.	.	.	.	.	.	.	.
!LO:LB:g=original	!	!	!LO:LB:g=original	!	!	!	!	!	!	!	!	!	!	!	!	!
=45	=45	=45	=45	=45	=45	=45	=45	=45	=45	=45	=45	=45	=45	=45	=45	=45
!LO:TX:a:t=Alto	!	!	!	!	!	!	!	!	!	!	!LO:TX:a:t=Solo	!	!	!	!	!
4D\	.	4DD\	4f#/	.	4dd\	.	2.ryy	.	2.ryy	.	8.dd\	Do-	.	.	2.ryy	2.ryy
.	.	.	.	.	.	.	.	.	.	.	16dd\	-mi-	.	.	.	.
4r	.	4r	4r	.	4aa\	.	.	.	.	.	4a\	-nus	.	.	.	.
4r	.	4r	4r	.	4ff#\	.	.	.	.	.	4f#\	a	.	.	.	.
!	!	!LO:LB:g=original	!	!	!	!	!	!	!	!	!	!	!	!	!	!
=46	=46	=46	=46	=46	=46	=46	=46	=46	=46	=46	=46	=46	=46	=46	=46	=46
8BB/L	-3	8BBB/L	8f#/L	.	2dd\	.	2.ryy	.	2.ryy	.	2d\	dex-	.	.	2.ryy	2.ryy
8BB/	.	8BBB/	8f#/	.	.	.	.	.	.	.	.	.	.	.	.	.
8BB/	.	8BBB/	8f#/	.	.	.	.	.	.	.	.	.	.	.	.	.
8BB/	.	8BBB/	8f#/	.	.	.	.	.	.	.	.	.	.	.	.	.
8BB/	.	8BBB/	8f#/	.	4dd\	.	.	.	.	.	4d\	-tris	.	.	.	.
8BB/J	.	8BBB/J	8f#/J	.	.	.	.	.	.	.	.	.	.	.	.	.
=47	=47	=47	=47	=47	=47	=47	=47	=47	=47	=47	=47	=47	=47	=47	=47	=47
!LO:TX:t=P:problem:mixed beam	!	!LO:TX:t=P:problem:mixed beam	!	!	!	!	!	!	!	!	!	!	!	!	!	!
8FF#/L	6	8FFF#/L	4d/	.	4aa\	.	2.ryy	.	2.ryy	.	4a\	a	.	.	2.ryy	2.ryy
8F#\J	.	8FF#\J	.	.	.	.	.	.	.	.	.	.	.	.	.	.
4G\	.	4GG\	4d/	.	4bb\	.	.	.	.	.	4b\	dex-	.	.	.	.
4F#\	.	4FF#\	4d/	.	4aa\	.	.	.	.	.	4a\	-tris	.	.	.	.
=48	=48	=48	=48	=48	=48	=48	=48	=48	=48	=48	=48	=48	=48	=48	=48	=48
!	!	!	!	!	!LO:TX:t=P:problem:mixed beam	!	!	!	!	!	!	!	!	!	!	!
.	.	.	.	.	.	.	.	.	.	.	8qqa/	.	.	.	.	.
!	!	!	!	!	!	!	!	!	!	!	!	!	!LO:N:vis=00	!	!	!
8E\	6\	8EE\	8c#X/L	.	8gg\L	.	2.ryy	.	2.ryy	.	2a\	tu-	0.r	.	2.ryy	2.ryy
!LO:TX:b:t=|	!	!	!	!	!	!	!	!	!	!	!	!	!	!	!	!
8AA/L	.	8AAA/L	8A/	.	8A/	.	.	.	.	.	.	.	.	.	.	.
!LO:TX:b:t=|	!	!	!	!	!	!	!	!	!	!	!	!	!	!	!	!
8C#X/	.	8CC#X/	8c#/	.	8c#X/	.	.	.	.	.	.	.	.	.	.	.
!LO:TX:b:t=|	!	!	!	!	!	!	!	!	!	!	!	!	!	!	!	!
8E/	.	8EE/	8e/	.	8e/	.	.	.	.	.	.	.	.	.	.	.
!LO:TX:b:t=|	!	!	!	!	!	!	!	!	!	!	!	!	!	!	!	!
8A/	.	8AA/	8a/	.	8a/	.	.	.	.	.	4g\	-is	.	.	.	.
!LO:TX:b:t=|	!	!	!	!	!	!	!	!	!	!	!	!	!	!	!	!
8E/J	.	8EE/J	8e/J	.	8e/J	.	.	.	.	.	.	.	.	.	.	.
!	!	!	!	!	!LO:LB:g=original	!	!	!	!	!	!	!	!	!	!	!
=49	=49	=49	=49	=49	=49	=49	=49	=49	=49	=49	=49	=49	=49	=49	=49	=49
4AA/	#7	4AAA/	4e/	.	4gg\	.	2.ryy	.	2.ryy	.	4g\	con-	.	.	2.ryy	2.ryy
4r	.	4r	4f#/	.	4aa\	.	.	.	.	.	4a\	-fre-	.	.	.	.
!	!	!	!	!	!	!	!	!	!	!	!LO:LB:g=original	!	!	!	!	!
8r	.	8r	4e/	.	4gg\	.	.	.	.	.	8g\	-git	.	.	.	.
8A\	.	8AA\	.	.	.	.	.	.	.	.	8g\	in	.	.	.	.
=50	=50	=50	=50	=50	=50	=50	=50	=50	=50	=50	=50	=50	=50	=50	=50	=50
.	.	.	.	.	.	.	.	.	.	.	8qqg/	.	.	.	.	.
!	!	!	!	!	!LO:TX:t=P:problem:mixed beam	!	!	!	!	!	!	!	!	!	!	!
8D\	.	8DD\	8d/L	.	8ff#\L	.	2.ryy	.	2.ryy	.	4f#\	di-	.	.	2.ryy	2.ryy
!LO:TX:a:t=|	!	!	!	!	!LO:TX:b:t=|	!	!	!	!	!	!	!	!	!	!	!
8D\L	.	8DD\L	8d/	.	8d/	.	.	.	.	.	.	.	.	.	.	.
!LO:TX:a:t=|	!	!	!	!	!LO:TX:b:t=|	!	!	!	!	!	!	!	!	!	!	!
8F#\	.	8FF#\	8f#/	.	8f#/	.	.	.	.	.	2f#\	-e	.	.	.	.
!LO:TX:a:t=|	!	!	!	!	!LO:TX:b:t=|	!	!	!	!	!	!	!	!	!	!	!
8A\	.	8AA\	8a/	.	8a/	.	.	.	.	.	.	.	.	.	.	.
!LO:TX:a:t=|	!	!	!	!	!LO:TX:b:t=|	!	!	!	!	!	!	!	!	!	!	!
8d\	.	8D\	8dd/	.	8dd/	.	.	.	.	.	.	.	.	.	.	.
!LO:TX:a:t=|	!	!	!	!	!LO:TX:b:t=|	!	!	!	!	!	!	!	!	!	!	!
8A\J	.	8AA\J	8a/J	.	8a/J	.	.	.	.	.	.	.	.	.	.	.
=51	=51	=51	=51	=51	=51	=51	=51	=51	=51	=51	=51	=51	=51	=51	=51	=51
4.D\	.	4.DD\	4.f#/	.	4.aa\	.	2.ryy	.	2.ryy	.	4.a\	i-	.	.	2.ryy	2.ryy
8E\L	.	8EE\L	8e/	.	8gg\L	.	.	.	.	.	8g\	-rae	.	.	.	.
8F#\	.	8FF#\	8d/L	.	8ff#\	.	.	.	.	.	8f#\	su-	.	.	.	.
8G\J	.	8GG\J	8B/J	.	8ee\J	.	.	.	.	.	8e\	-ae	.	.	.	.
!LO:LB:g=original	!	!LO:LB:g=original	!LO:LB:g=original	!	!	!	!	!	!	!	!	!	!	!	!	!
=52	=52	=52	=52	=52	=52	=52	=52	=52	=52	=52	=52	=52	=52	=52	=52	=52
!	!	!	!	!	!	!	!	!	!	!	!	!	!LO:N:vis=0	!	!	!
8F#\L	.	8FF#\L	4A/	.	4dd\	.	2.ryy	.	2.ryy	.	8f#\L	re-	1.r	.	2.ryy	2.ryy
8G\J	.	8GG\J	.	.	.	.	.	.	.	.	8e\J	.	.	.	.	.
4A\	6 4	4AA\	4r	.	4r	.	.	.	.	.	4f#\	.	.	.	.	.
4AA/	#	4AAA/	4r	.	4r	.	.	.	.	.	8e\L	.	.	.	.	.
.	.	.	.	.	.	.	.	.	.	.	8d\J	.	.	.	.	.
=53	=53	=53	=53	=53	=53	=53	=53	=53	=53	=53	=53	=53	=53	=53	=53	=53
4D/	.	4DD\	8.ddd\L	.	8.ddd\L	.	2.ryy	.	2.ryy	.	4d\	-ges.	.	.	2.ryy	2.ryy
.	.	.	16ddd\K	.	16ddd\K	.	.	.	.	.	.	.	.	.	.	.
4r	.	4r	8.aa\	.	8.aa\	.	.	.	.	.	4r	.	.	.	.	.
.	.	.	16aa\K	.	16aa\K	.	.	.	.	.	.	.	.	.	.	.
4r	.	4r	8.ff#\	.	8.ff#\	.	.	.	.	.	4r	.	.	.	.	.
.	.	.	16ff#\Jk	.	16ff#\Jk	.	.	.	.	.	.	.	.	.	.	.
=54	=54	=54	=54	=54	=54	=54	=54	=54	=54	=54	=54	=54	=54	=54	=54	=54
2.r	.	2.r	4dd\	.	4dd\	.	2.ryy	.	2.ryy	.	2.r	.	4r	.	2.ryy	2.ryy
.	.	.	4r	.	4dd\	.	.	.	.	.	.	.	4dd\	Ju-	.	.
.	.	.	4r	.	4dd\	.	.	.	.	.	.	.	4dd\	-di-	.	.
!	!	!	!	!	!	!	!	!	!	!	!LO:LB:g=original	!	!	!	!	!
=55	=55	=55	=55	=55	=55	=55	=55	=55	=55	=55	=55	=55	=55	=55	=55	=55
!	!	!	!	!LO:DY:a	!	!	!	!	!	!	!	!	!	!	!	!
4E\	#7	4EE\	4g#X/	p	4dd\	.	2.ryy	.	2.ryy	.	4g\	in	4dd\	-ca-	2.ryy	2.ryy
4E\	.	4EE\	4g#/	.	4dd\	.	.	.	.	.	4g\	na-	8dd\	-bit	.	.
.	.	.	.	.	.	.	.	.	.	.	.	.	8dd\	in	.	.
4E\	.	4EE\	4g#/	.	4dd\	.	.	.	.	.	4g\	-ti-	8dd\	na-	.	.
.	.	.	.	.	.	.	.	.	.	.	.	.	8dd\	-ti-	.	.
=56	=56	=56	=56	=56	=56	=56	=56	=56	=56	=56	=56	=56	=56	=56	=56	=56
4A\	n	4AA\	4e/	.	4ccn\	.	2.ryy	.	2.ryy	.	4.a\	-o-	4.ccn\	-o-	2.ryy	2.ryy
4A\	.	4AA\	4r	.	4r	.	.	.	.	.	.	.	.	.	.	.
.	.	.	.	.	.	.	.	.	.	.	8a\	-ni-	8cc\	-ni-	.	.
4A\	.	4AA\	4r	.	4r	.	.	.	.	.	4a\	-bus	4cc\	-bus	.	.
!	!	!	!	!	!LO:LB:g=original	!	!	!	!	!	!	!	!LO:LB:g=original	!	!	!
=57	=57	=57	=57	=57	=57	=57	=57	=57	=57	=57	=57	=57	=57	=57	=57	=57
!	!	!	!	!	!LO:TX:a:t=6	!	!	!	!	!	!	!	!	!	!	!
!	!	!	!LO:N:vis=00	!	!LO:N:vis=00	!	!	!	!	!	!	!	!	!	!	!
4D\	#7	4DD\	0.r	.	0.r	.	2.ryy	.	2.ryy	.	4f#\	im-	4cc#\	im-	2.ryy	2.ryy
4D\	.	4DD\	.	.	.	.	.	.	.	.	4f#\	-ple-	4dd\	-ple-	.	.
4D\	.	4DD\	.	.	.	.	.	.	.	.	8f#\	-bit	8cc#\	-bit	.	.
.	.	.	.	.	.	.	.	.	.	.	8f#\	ru-	8dd\	ru-	.	.
=58	=58	=58	=58	=58	=58	=58	=58	=58	=58	=58	=58	=58	=58	=58	=58	=58
4G\	.	4GG\	.	.	.	.	2.ryy	.	2.ryy	.	4g\	-i-	4b\	-i-	2.ryy	2.ryy
4G\	.	4GG\	.	.	.	.	.	.	.	.	8g\	-nas	8b\	-nas	.	.
.	.	.	.	.	.	.	.	.	.	.	4g\	con-	4b\	con-	.	.
4r	.	4r	.	.	.	.	.	.	.	.	.	.	.	.	.	.
.	.	.	.	.	.	.	.	.	.	.	8b\	-quaſ-	8b\	-quaſ-	.	.
=59	=59	=59	=59	=59	=59	=59	=59	=59	=59	=59	=59	=59	=59	=59	=59	=59
4r	.	4r	.	.	.	.	2.ryy	.	2.ryy	.	2b\	-sa-	2bt\	-sa-	2.ryy	2.ryy
4r	.	4r	.	.	.	.	.	.	.	.	.	.	.	.	.	.
4E\	n	4EE\	.	.	.	.	.	.	.	.	4b\	-bit	4b\	-bit	.	.
!	!	!	!	!	!	!	!	!	!	!	!LO:LB:g=original	!	!	!	!	!
=60	=60	=60	=60	=60	=60	=60	=60	=60	=60	=60	=60	=60	=60	=60	=60	=60
4A\	9	4AA\	.	.	.	.	2.ryy	.	2.ryy	.	4.b\	ca-	4.cc#\	ca-	2.ryy	2.ryy
4A\	8	4AA\	.	.	.	.	.	.	.	.	.	.	.	.	.	.
.	.	.	.	.	.	.	.	.	.	.	8a\	-pi-	8cc#\	-pi-	.	.
4A\	n	4AA\	.	.	.	.	.	.	.	.	8a\	-ta	8cc#\	-ta	.	.
.	.	.	.	.	.	.	.	.	.	.	8a\	in	8cc#\	in	.	.
!	!	!LO:LB:g=original	!	!	!	!	!	!	!	!	!	!	!	!	!	!
=61	=61	=61	=61	=61	=61	=61	=61	=61	=61	=61	=61	=61	=61	=61	=61	=61
!	!	!	!LO:N:vis=0	!	!LO:N:vis=0	!	!	!	!	!	!	!	!	!	!	!
4G\	6	4GG\	1.r	.	1.r	.	2.ryy	.	2.ryy	.	(4b\	ter-	4b\	ter-	2.ryy	2.ryy
4F#\	6\	4FF#\	.	.	.	.	.	.	.	.	4a\)	.	8cc#X\L	.	.	.
.	.	.	.	.	.	.	.	.	.	.	.	.	8dd#X\J	.	.	.
4E\	.	4EE\	.	.	.	.	.	.	.	.	4g\	-ra	4ee\	-ra	.	.
!LO:LB:g=original	!	!	!	!	!	!	!	!	!	!	!	!	!	!	!	!
=62	=62	=62	=62	=62	=62	=62	=62	=62	=62	=62	=62	=62	=62	=62	=62	=62
4A\	65	4AA\	.	.	.	.	2.ryy	.	2.ryy	.	8a\L	mul-	8ff#\L	mul-	2.ryy	2.ryy
.	.	.	.	.	.	.	.	.	.	.	8g\J	.	8ee\J	.	.	.
4B\	.	4BB\	.	.	.	.	.	.	.	.	2f#\	-to-	2dd#X\	-to-	.	.
4BB/	.	4BBB/	.	.	.	.	.	.	.	.	.	.	.	.	.	.
!	!	!	!LO:PB:g=original	!	!	!	!	!	!	!	!	!	!LO:LB:g=original	!	!	!
=63	=63	=63	=63	=63	=63	=63	=63	=63	=63	=63	=63	=63	=63	=63	=63	=63
4E\	n	4EE\	8g/	.	8b/	.	2.ryy	.	2.ryy	.	4e\	-rum.	4ee\	-rum	2.ryy	2.ryy
.	.	.	4f#/	.	4a/	.	.	.	.	.	.	.	.	.	.	.
4r	.	4r	.	.	.	.	.	.	.	.	4r	.	4r	.	.	.
!	!	!	!LO:N:vis=8	!	!	!	!	!	!	!	!	!	!	!	!	!
.	.	.	4e/	.	4g/	.	.	.	.	.	.	.	.	.	.	.
4r	.	4r	.	.	.	.	.	.	.	.	4r	.	4r	.	.	.
.	.	.	8g/	.	8b/	.	.	.	.	.	.	.	.	.	.	.
=64	=64	=64	=64	=64	=64	=64	=64	=64	=64	=64	=64	=64	=64	=64	=64	=64
!	!	!	!	!	!	!	!	!	!	!	!LO:N:vis=0	!	!LO:N:vis=0	!	!	!
4E\	6 4	4EE\	8a/	.	8cc\	.	2.ryy	.	2.ryy	.	1.r	.	1.r	.	2.ryy	2.ryy
.	.	.	4g/	.	4b\	.	.	.	.	.	.	.	.	.	.	.
4r	.	4r	.	.	.	.	.	.	.	.	.	.	.	.	.	.
.	.	.	4f#/	.	4a\	.	.	.	.	.	.	.	.	.	.	.
4r	.	4r	.	.	.	.	.	.	.	.	.	.	.	.	.	.
.	.	.	8a/	.	8cc\	.	.	.	.	.	.	.	.	.	.	.
=65	=65	=65	=65	=65	=65	=65	=65	=65	=65	=65	=65	=65	=65	=65	=65	=65
8E\L	3	8EE\L	8g/L	.	8.b/L	.	2.ryy	.	2.ryy	.	.	.	.	.	2.ryy	2.ryy
8G\J	.	8GG\J	8e/J	.	.	.	.	.	.	.	.	.	.	.	.	.
.	.	.	.	.	16g/Jk	.	.	.	.	.	.	.	.	.	.	.
4B\	#	4BB\	4.d#X/	.	4.f#/	.	.	.	.	.	.	.	.	.	.	.
4BB/	.	4BBB/	.	.	.	.	.	.	.	.	.	.	.	.	.	.
.	.	.	8d#/	.	8f#/	.	.	.	.	.	.	.	.	.	.	.
=66	=66	=66	=66	=66	=66	=66	=66	=66	=66	=66	=66	=66	=66	=66	=66	=66
4E\	#	4EE\	4e/	.	4e/	.	2.ryy	.	2.ryy	.	2.r	.	4e/	de	2.ryy	2.ryy
4E\	.	4EE\	4r	.	4r	.	.	.	.	.	.	.	(<4g#X/	.	.	.
4E\	.	4EE\	4r	.	4r	.	.	.	.	.	.	.	4b\)	tor-	.	.
=67	=67	=67	=67	=67	=67	=67	=67	=67	=67	=67	=67	=67	=67	=67	=67	=67
!	!	!	!	!	!LO:TX:a:t=9	!	!	!	!	!	!	!	!	!	!	!
!	!	!	!LO:N:vis=00	!	!LO:N:vis=00	!	!	!	!	!	!	!	!	!	!	!
4E\	.	4EE\	0.r	.	0.r	.	2.ryy	.	2.ryy	.	4g#X\	in	4ee\	-ren-	2.ryy	2.ryy
4G#X\	6	4GG#X\	.	.	.	.	.	.	.	.	4g#\	vi-	4ddn\	-te	.	.
4G#\	-5	4GG#\	.	.	.	.	.	.	.	.	4e\	-a	4b\	in	.	.
=68	=68	=68	=68	=68	=68	=68	=68	=68	=68	=68	=68	=68	=68	=68	=68	=68
4A\	.	4AA\	.	.	.	.	2.ryy	.	2.ryy	.	4a\	bi-	4cc#\	vi-	2.ryy	2.ryy
4A\	.	4AA\	.	.	.	.	.	.	.	.	2a\	-bet	2a\	-a	.	.
4A\	.	4AA\	.	.	.	.	.	.	.	.	.	.	.	.	.	.
!	!	!	!	!	!	!	!	!	!	!	!LO:LB:g=original	!	!	!	!	!
=69	=69	=69	=69	=69	=69	=69	=69	=69	=69	=69	=69	=69	=69	=69	=69	=69
*	*	*	*	*	*	*	*	*	*	*	*	*ij	*	*	*	*
4d\	.	4D\	.	.	.	.	2.ryy	.	2.ryy	.	4f#\	in	4d/	in	2.ryy	2.ryy
4D/	.	4DD/	.	.	.	.	.	.	.	.	4f#\	vi-	4f#/	vi-	.	.
4D/	.	4DD/	.	.	.	.	.	.	.	.	4f#\	-a	4a/	-a	.	.
=70	=70	=70	=70	=70	=70	=70	=70	=70	=70	=70	=70	=70	=70	=70	=70	=70
4D\	.	4DD\	.	.	.	.	2.ryy	.	2.ryy	.	(4f#\	in	(4dd\	in	2.ryy	2.ryy
4F#\	67	4FF#\	.	.	.	.	.	.	.	.	4a\)	vi-	4cc#\)	vi-	.	.
4D\	.	4DD\	.	.	.	.	.	.	.	.	4f#\	-a	4a\	-a	.	.
*	*	*	*	*	*	*	*	*	*	*	*	*Xij	*	*	*	*
!LO:LB:g=original	!	!LO:LB:g=original	!	!	!	!	!	!	!	!	!	!	!	!	!	!
=71	=71	=71	=71	=71	=71	=71	=71	=71	=71	=71	=71	=71	=71	=71	=71	=71
!	!	!	!LO:N:vis=00	!	!LO:N:vis=00	!	!	!	!	!	!	!	!	!	!	!
4G\	.	4GG\	0.r	.	0.r	.	2.ryy	.	2.ryy	.	4g\	bi-	4b\	bi-	2.ryy	2.ryy
4GG/	.	4GGG/	.	.	.	.	.	.	.	.	4f#\	-bet	4g#\	-bet	.	.
4G\	.	4GG\	.	.	.	.	.	.	.	.	4b\	pro-	4dd\	pro-	.	.
!	!	!	!	!	!	!	!	!	!	!	!	!	!LO:LB:g=original	!	!	!
=72	=72	=72	=72	=72	=72	=72	=72	=72	=72	=72	=72	=72	=72	=72	=72	=72
4d\	.	4D\	.	.	.	.	2.ryy	.	2.ryy	.	4.a\	-pte-	4.cc#\	-pte-	2.ryy	2.ryy
4D/	.	4DD/	.	.	.	.	.	.	.	.	.	.	.	.	.	.
.	.	.	.	.	.	.	.	.	.	.	8a\	-re-	8cc#\	-re-	.	.
4D/	.	4DD/	.	.	.	.	.	.	.	.	4a\	-a	4cc#\	-a	.	.
=73	=73	=73	=73	=73	=73	=73	=73	=73	=73	=73	=73	=73	=73	=73	=73	=73
4G\	.	4GG\	.	.	.	.	2.ryy	.	2.ryy	.	2g\	e-	(4b\	e-	2.ryy	2.ryy
4A\	.	4AA\	.	.	.	.	.	.	.	.	.	.	4cc#\)	.	.	.
4B\	.	4BB\	.	.	.	.	.	.	.	.	4g\	-xal-	4dd\	-xal-	.	.
=74	=74	=74	=74	=74	=74	=74	=74	=74	=74	=74	=74	=74	=74	=74	=74	=74
4c\	56	4C\	.	.	.	.	2.ryy	.	2.ryy	.	4g\	-ta-	2.ee\	-ta-	2.ryy	2.ryy
4c\	.	4C\	.	.	.	.	.	.	.	.	2a\	.	.	.	.	.
4c\	.	4C\	.	.	.	.	.	.	.	.	.	.	.	.	.	.
=75	=75	=75	=75	=75	=75	=75	=75	=75	=75	=75	=75	=75	=75	=75	=75	=75
!	!	!	!LO:N:vis=0	!	!	!	!	!	!	!	!	!	!	!	!	!
4B\	7	4BB\	1.r	.	2.r	.	2.ryy	.	2.ryy	.	4a\	.	2dd\	.	2.ryy	2.ryy
4B\	6	4BB\	.	.	.	.	.	.	.	.	4g\	.	.	.	.	.
!	!	!	!	!	!	!	!	!	!	!	!LO:LB:g=original	!	!	!	!	!
4A\	76	4AA\	.	.	.	.	.	.	.	.	8g\L	.	4cc#\	.	.	.
.	.	.	.	.	.	.	.	.	.	.	8f#\J	.	.	.	.	.
=76	=76	=76	=76	=76	=76	=76	=76	=76	=76	=76	=76	=76	=76	=76	=76	=76
4G\	.	4GG\	.	.	2.ryy	.	2.ryy	.	2.ryy	.	2g\	.	4.b\	.	2.ryy	2.ryy
4A\	.	4AA\	.	.	.	.	.	.	.	.	.	.	.	.	.	.
.	.	.	.	.	.	.	.	.	.	.	.	.	8cc#\	.	.	.
4B\	.	4BB\	.	.	.	.	.	.	.	.	4g\	-bit	4dd\	-bit	.	.
=77	=77	=77	=77	=77	=77	=77	=77	=77	=77	=77	=77	=77	=77	=77	=77	=77
4c\	.	4C\	2.r	.	2.ryy	.	2.ryy	.	2.ryy	.	2g\	ca-	8b\L	ca-	2.ryy	2.ryy
.	.	.	.	.	.	.	.	.	.	.	.	.	8a\J	.	.	.
4d\	.	4D\	.	.	.	.	.	.	.	.	.	.	4b\	.	.	.
4D/	.	4DD/	.	.	.	.	.	.	.	.	4f#\	.	8a\L	.	.	.
.	.	.	.	.	.	.	.	.	.	.	.	.	8g#\J	.	.	.
=78	=78	=78	=78	=78	=78	=78	=78	=78	=78	=78	=78	=78	=78	=78	=78	=78
4G\	.	4GG\	8.gg\L	.	8.gg\L	.	2.ryy	.	2.ryy	.	4g\	-put.	4g#/	-put.	2.ryy	2.ryy
.	.	.	16gg\K	.	16gg\K	.	.	.	.	.	.	.	.	.	.	.
4r	.	4r	8.dd\	.	8.dd\	.	.	.	.	.	4r	.	4r	.	.	.
.	.	.	16dd\K	.	16dd\K	.	.	.	.	.	.	.	.	.	.	.
4r	.	4r	8.b\	.	8.b\	.	.	.	.	.	4r	.	4r	.	.	.
.	.	.	16b\Jk	.	16b\Jk	.	.	.	.	.	.	.	.	.	.	.
!	!	!	!LO:LB:g=original	!	!	!	!	!	!	!	!	!	!	!	!	!
=79	=79	=79	=79	=79	=79	=79	=79	=79	=79	=79	=79	=79	=79	=79	=79	=79
!LO:TX:b:t=|	!	!	!	!	!	!	!	!	!	!	!LO:N:vis=0	!	!LO:N:vis=00	!	!	!
8GG/L	.	8GGG/L	8G/L	.	8G/L	.	2.ryy	.	2.ryy	.	0.r	.	0.r	.	2.ryy	2.ryy
!LO:TX:b:t=|	!	!	!	!	!	!	!	!	!	!	!	!	!	!	!	!
16AA/L	.	16AAA/L	16A/L	.	16A/L	.	.	.	.	.	.	.	.	.	.	.
!LO:TX:b:t=|	!	!	!	!	!	!	!	!	!	!	!	!	!	!	!	!
16BB/JJ	.	16BBB/JJ	16B/JJ	.	16B/JJ	.	.	.	.	.	.	.	.	.	.	.
!LO:TX:b:t=|	!	!	!	!	!LO:LB:g=original	!	!	!	!	!	!	!	!	!	!	!
16C/LL	.	16CC\LL	16c/LL	.	16c/LL	.	.	.	.	.	.	.	.	.	.	.
!LO:TX:b:t=|	!	!	!	!	!	!	!	!	!	!	!	!	!	!	!	!
16D/	.	16DD\	16d/	.	16d/	.	.	.	.	.	.	.	.	.	.	.
!LO:TX:b:t=|	!	!	!	!	!	!	!	!	!	!	!	!	!	!	!	!
16E/	.	16EE\	16e/	.	16e/	.	.	.	.	.	.	.	.	.	.	.
!LO:TX:b:t=|	!	!	!	!	!	!	!	!	!	!	!	!	!	!	!	!
16F#/JJ	.	16FF#\JJ	16f#/JJ	.	16f#/JJ	.	.	.	.	.	.	.	.	.	.	.
!LO:LB:g=original	!	!	!	!	!	!	!	!	!	!	!	!	!	!	!	!
!LO:TX:a:t=|	!	!LO:PB:g=original	!	!	!LO:TX:t=P:problem:mixed beam	!	!	!	!	!	!	!	!	!	!	!
4G\	.	4GG\	8g/L	.	8g/L	.	.	.	.	.	.	.	.	.	.	.
.	.	.	8b/J	.	8dd\J	.	.	.	.	.	.	.	.	.	.	.
=80	=80	=80	=80	=80	=80	=80	=80	=80	=80	=80	=80	=80	=80	=80	=80	=80
4G\	.	4GG\	8b\	.	8dd\	.	2.ryy	.	2.ryy	.	.	.	.	.	2.ryy	2.ryy
.	.	.	4cc\	.	4ee\	.	.	.	.	.	.	.	.	.	.	.
4r	.	4r	.	.	.	.	.	.	.	.	.	.	.	.	.	.
.	.	.	8b\L	.	8dd\L	.	.	.	.	.	.	.	.	.	.	.
4r	.	4r	8cc\	.	8ee\	.	.	.	.	.	.	.	.	.	.	.
.	.	.	8b\J	.	8dd\J	.	.	.	.	.	.	.	.	.	.	.
=81	=81	=81	=81	=81	=81	=81	=81	=81	=81	=81	=81	=81	=81	=81	=81	=81
!	!	!	!	!	!LO:TX:t=P:problem:mixed beam	!	!	!	!	!	!	!	!	!	!	!
8r	.	8r	8a/L	.	8cc\L	.	2.ryy	.	2.ryy	.	.	.	.	.	2.ryy	2.ryy
!LO:TX:a:t=|	!	!	!	!	!LO:TX:b:t=|	!	!	!	!	!	!	!	!	!	!	!
8D\L	.	8DD\L	8d/	.	8d/	.	.	.	.	.	.	.	.	.	.	.
!LO:TX:a:t=|	!	!	!	!	!LO:TX:b:t=|	!	!	!	!	!	!	!	!	!	!	!
8F#\	.	8FF#\	8f#/	.	8f#/	.	.	.	.	.	.	.	.	.	.	.
!LO:TX:a:t=|	!	!	!	!	!LO:TX:b:t=|	!	!	!	!	!	!	!	!	!	!	!
8A\	.	8AA\	8a/	.	8a/	.	.	.	.	.	.	.	.	.	.	.
!LO:TX:a:t=|	!	!	!	!	!LO:TX:b:t=|	!	!	!	!	!	!	!	!	!	!	!
8d\	.	8D\	8dd/	.	8dd/	.	.	.	.	.	.	.	.	.	.	.
!LO:TX:a:t=|	!	!	!	!	!LO:TX:b:t=|	!	!	!	!	!	!	!	!	!	!	!
8A\J	.	8AA\J	8a/J	.	8a/J	.	.	.	.	.	.	.	.	.	.	.
=82	=82	=82	=82	=82	=82	=82	=82	=82	=82	=82	=82	=82	=82	=82	=82	=82
4D/	.	4DD\	8d/	.	8d/	.	2.ryy	.	2.ryy	.	.	.	.	.	2.ryy	2.ryy
.	.	.	4a/	.	4cc\	.	.	.	.	.	.	.	.	.	.	.
4r	.	4r	.	.	.	.	.	.	.	.	.	.	.	.	.	.
.	.	.	16g/LL	.	16b\LL	.	.	.	.	.	.	.	.	.	.	.
.	.	.	16a/JJ	.	16cc\JJ	.	.	.	.	.	.	.	.	.	.	.
4r	.	4r	8b/L	.	8dd\L	.	.	.	.	.	.	.	.	.	.	.
.	.	.	8a/J	.	8cc\J	.	.	.	.	.	.	.	.	.	.	.
!	!	!	!LO:LB:g=original	!	!	!	!	!	!	!	!	!	!	!	!	!
=83	=83	=83	=83	=83	=83	=83	=83	=83	=83	=83	=83	=83	=83	=83	=83	=83
!	!	!	!	!	!	!	!	!	!	!	!LO:N:vis=00	!	!LO:N:vis=00	!	!	!
8r	.	8r	8g/L	.	8b/L	.	2.ryy	.	2.ryy	.	0.r	.	0.r	.	2.ryy	2.ryy
!LO:TX:b:t=|	!	!	!	!	!	!	!	!	!	!	!	!	!	!	!	!
8GG/L	.	8GGG/L	8G/	.	8G/	.	.	.	.	.	.	.	.	.	.	.
!LO:TX:b:t=|	!	!	!	!	!	!	!	!	!	!	!	!	!	!	!	!
8BB/	.	8BBB/	8B/	.	8B/	.	.	.	.	.	.	.	.	.	.	.
!LO:TX:b:t=|	!	!	!	!	!	!	!	!	!	!	!	!	!	!	!	!
8D/	.	8DD/	8d/	.	8d/	.	.	.	.	.	.	.	.	.	.	.
!LO:TX:b:t=|	!	!	!	!	!	!	!	!	!	!	!	!	!	!	!	!
8G/	.	8GG/	8g/	.	8g/	.	.	.	.	.	.	.	.	.	.	.
!LO:TX:b:t=|	!	!	!	!	!	!	!	!	!	!	!	!	!	!	!	!
8D/J	.	8DD/J	8d/J	.	8d/J	.	.	.	.	.	.	.	.	.	.	.
=84	=84	=84	=84	=84	=84	=84	=84	=84	=84	=84	=84	=84	=84	=84	=84	=84
!LO:TX:t=P:problem:mixed beam	!	!LO:TX:t=P:problem:mixed beam	!	!	!	!	!	!	!	!	!	!	!	!	!	!
8GG/L	.	8GGG/L	8G/	.	8G/	.	2.ryy	.	2.ryy	.	.	.	.	.	2.ryy	2.ryy
8GG/	.	8GGG/	4b/	.	4dd\	.	.	.	.	.	.	.	.	.	.	.
8GG/	.	8GGG/	.	.	.	.	.	.	.	.	.	.	.	.	.	.
8GG/	.	8GGG/	4a/	.	4cc\	.	.	.	.	.	.	.	.	.	.	.
8GG/	.	8GGG/	.	.	.	.	.	.	.	.	.	.	.	.	.	.
8G\J	.	8GG\J	8g/	.	8b\	.	.	.	.	.	.	.	.	.	.	.
!	!	!	!	!	!LO:LB:g=original	!	!	!	!	!	!	!	!	!	!	!
=85	=85	=85	=85	=85	=85	=85	=85	=85	=85	=85	=85	=85	=85	=85	=85	=85
8E\	6\	8EE\	8g/	.	8cc#X\	.	2.ryy	.	2.ryy	.	.	.	.	.	2.ryy	2.ryy
4D\	.	4DD\	4f#/	.	4dd\	.	.	.	.	.	.	.	.	.	.	.
8E\L	6\	8EE\L	8g/L	.	8cc#X\L	.	.	.	.	.	.	.	.	.	.	.
8E\	.	8EE\	8g/	.	8cc#\	.	.	.	.	.	.	.	.	.	.	.
8E\J	.	8EE\J	8g/J	.	8cc#\J	.	.	.	.	.	.	.	.	.	.	.
=86	=86	=86	=86	=86	=86	=86	=86	=86	=86	=86	=86	=86	=86	=86	=86	=86
!	!	!	!	!	!LO:SIC:v:s=8cc#	!	!	!	!	!	!	!	!	!	!	!
8E\L	.	8EE\L	8g/L	.	8cc\	.	2.ryy	.	2.ryy	.	.	.	.	.	2.ryy	2.ryy
8D\	.	8DD\J	8f#/	.	4dd\	.	.	.	.	.	.	.	.	.	.	.
!	!	!LO:LB:g=original	!	!	!	!	!	!	!	!	!	!	!	!	!	!
8D\	.	8DD\L	8f#/	.	.	.	.	.	.	.	.	.	.	.	.	.
8F#\	-5	8FF#\	8f#/	.	8ccn\L	.	.	.	.	.	.	.	.	.	.	.
8F#\	.	8FF#\	8a/	.	8cc\	.	.	.	.	.	.	.	.	.	.	.
8F#\J	.	8FF#\J	8a/J	.	8cc\J	.	.	.	.	.	.	.	.	.	.	.
!LO:LB:g=original	!	!	!	!	!	!	!	!	!	!	!	!	!	!	!	!
=87	=87	=87	=87	=87	=87	=87	=87	=87	=87	=87	=87	=87	=87	=87	=87	=87
!	!	!	!	!	!LO:TUP:b	!	!	!	!	!	!LO:N:vis=0	!	!LO:N:vis=0	!	!	!
4G\	.	4GG\	8g/L	.	12b/L	.	2.ryy	.	2.ryy	.	1.r	.	1.r	.	2.ryy	2.ryy
.	.	.	.	.	12a/	.	.	.	.	.	.	.	.	.	.	.
.	.	.	8B/J	.	.	.	.	.	.	.	.	.	.	.	.	.
.	.	.	.	.	12g/J	.	.	.	.	.	.	.	.	.	.	.
4d\	.	4D\	4A/	.	4.f#/	.	.	.	.	.	.	.	.	.	.	.
4D/	.	4DD/	4A/	.	.	.	.	.	.	.	.	.	.	.	.	.
.	.	.	.	.	8f#/	.	.	.	.	.	.	.	.	.	.	.
=88	=88	=88	=88	=88	=88	=88	=88	=88	=88	=88	=88	=88	=88	=88	=88	=88
*2\right	*	*2\right	*	*	*	*	*	*	*	*	*	*	*	*	*	*
2G\	.	2GG\	4B/	.	4g/	.	2.ryy	.	2.ryy	.	.	.	.	.	2.ryy	2.ryy
.	.	.	4r	.	4r	.	.	.	.	.	.	.	.	.	.	.
4r	.	4r	4r	.	4r	.	.	.	.	.	.	.	.	.	.	.
!	!	!	!LO:LB:g=original	!	!	!	!LO:LB:g=original	!	!LO:LB:g=original	!	!	!	!LO:PB:g=original	!	!	!
=89||	=89||	=89||	=89||	=89||	=89||	=89||	=89||	=89||	=89||	=89||	=89||	=89||	=89||	=89||	=89||	=89||
*	*	*	*	*	*	*	*k[]	*	*clefC4	*	*	*	*	*	*	*
*M4/4	*	*M4/4	*M4/4	*	*M4/4	*	*M4/4	*	*M4/4	*	*M4/4	*	*M4/4	*	*M4/4	*M4/4
*met(c)	*	*met(c)	*met(c)	*	*met(c)	*	*met(c)	*	*met(c)	*	*met(c)	*	*met(c)	*	*met(c)	*met(c)
*	*	*	*	*	*	*	*	*	*k[f#]	*	*	*	*	*	*	*
!LO:TX:a:t=Solo Ad(a)gi(o)	!	!LO:TX:a:t=Solo adag(io)	!LO:TX:a:t=Gloria Tacet	!	!LO:TX:a:t=Gloria\nTacet	!	!	!	!	!	!LO:TX:a:t=Gloria Patri\nTacet	!	!LO:TX:a:t=Gloria\nTacet	!	!	!
!	!	!LO:TX:b:t=Gloria	!	!	!	!	!	!	!	!	!	!	!	!	!	!
2E\	n	2EE\	1ryy	.	1ryy	.	4G\	Glo-	4B\	Glo-	1ryy	.	1ryy	.	1ryy	1ryy
.	.	.	.	.	.	.	8G\	-ri-	8e\	-ri-	.	.	.	.	.	.
.	.	.	.	.	.	.	8G\	-a	8d\	-a	.	.	.	.	.	.
2E\	6 4	2EE\	.	.	.	.	4A\	Pa-	4c\	Pa-	.	.	.	.	.	.
.	.	.	.	.	.	.	4A\	-tri	4c\	-tri	.	.	.	.	.	.
=90	=90	=90	=90	=90	=90	=90	=90	=90	=90	=90	=90	=90	=90	=90	=90	=90
2D#X\	-765	2DD#X\	1ryy	.	1ryy	.	4F#X\	glo-	4c\	glo-	1ryy	.	1ryy	.	1ryy	1ryy
.	.	.	.	.	.	.	8F#\	-ri-	8B\	-ri-	.	.	.	.	.	.
.	.	.	.	.	.	.	8F#\	-a	8A\	-a	.	.	.	.	.	.
2E\	.	2EE\	.	.	.	.	8E\	Fi-	8G/	Fi-	.	.	.	.	.	.
.	.	.	.	.	.	.	16E\	-li-	16G/	-li-	.	.	.	.	.	.
.	.	.	.	.	.	.	16E\	-oi	16G/	-o	.	.	.	.	.	.
.	.	.	.	.	.	.	4r	.	4r	.	.	.	.	.	.	.
=91	=91	=91	=91	=91	=91	=91	=91	=91	=91	=91	=91	=91	=91	=91	=91	=91
2C/	5:	2CC/	1ryy	.	1ryy	.	4E\	et	4G/	et	1ryy	.	1ryy	.	1ryy	1ryy
.	.	.	.	.	.	.	4E\	Spi-	4G/	Spi-	.	.	.	.	.	.
4AA/	7 5	4AAA/	.	.	.	.	4E\	-ri-	4G/	-ri-	.	.	.	.	.	.
4AA#X/	.	4AAA#X/	.	.	.	.	8E\	-tu-	8G/	-tu-	.	.	.	.	.	.
.	.	.	.	.	.	.	8E\	-i	8G/	-i	.	.	.	.	.	.
!	!	!	!	!	!	!	!	!	!LO:LB:g=original	!	!	!	!	!	!	!
=92	=92	=92	=92	=92	=92	=92	=92	=92	=92	=92	=92	=92	=92	=92	=92	=92
2BB/	6 4	2BBB/	1ryy	.	1ryy	.	4E\	San-	4G/	San-	1ryy	.	1ryy	.	1ryy	1ryy
.	#	.	.	.	.	.	4D#X\	.	4F#/	.	.	.	.	.	.	.
2E\	.	2EE\	.	.	.	.	4E\	-cto.	4E/	-cto.	.	.	.	.	.	.
.	.	.	.	.	.	.	4r	.	4r	.	.	.	.	.	.	.
!LO:LB:g=original	!	!	!	!	!LO:PB:g=original	!	!LO:LB:g=original	!	!LO:LB:g=original	!	!LO:PB:g=original	!	!	!	!	!
=93||	=93||	=93||	=93||	=93||	=93||	=93||	=93||	=93||	=93||	=93||	=93||	=93||	=93||	=93||	=93||	=93||
*k[]	*	*k[]	*k[]	*	*k[]	*	*k[]	*	*k[]	*	*k[]	*	*k[f#]	*	*k[]	*k[]
*M2/2	*	*M2/2	*M2/2	*	*M2/2	*	*M2/2	*	*M2/2	*	*M2/2	*	*M2/2	*	*M2/2	*M2/2
*met(c|)	*	*met(c|)	*met(c|)	*	*met(c|)	*	*met(c|)	*	*met(c|)	*	*met(c|)	*	*met(c|)	*	*met(c|)	*met(c|)
*	*	*	*	*	*	*	*	*	*	*	*	*	*clefC1	*	*	*
!LO:TX:a:t=Tutti	!	!LO:TX:b:t=Sicut erat	!LO:TX:b:t=Sicuterat	!	!LO:TX:b:t=Sicut erat	!	!	!	!LO:TX:a:t=2	!	!	!	!	!	!	!
!LO:TX:b:t=Sicuterat	!	!	!	!	!	!	!	!	!	!	!	!	!	!	!	!
2C/	.	2CC/	00r	.	00r	.	2C/	Si-	0r	.	00r	.	00r	.	00r	00r
[2F\	.	[2FF\	.	.	.	.	2F\	-cut	.	.	.	.	.	.	.	.
=94	=94	=94	=94	=94	=94	=94	=94	=94	=94	=94	=94	=94	=94	=94	=94	=94
!LO:N:xstem:cue	!	!LO:N:xstem:cue	!	!	!	!	!	!	!	!	!	!	!	!	!	!
4F\]	.	4FF\]	.	.	.	.	(4F\	e-	.	.	.	.	.	.	.	.
4D\	.	4DD\	.	.	.	.	4D\)	.	.	.	.	.	.	.	.	.
2G\	.	2GG\	.	.	.	.	2G\	-rat	.	.	.	.	.	.	.	.
=95	=95	=95	=95	=95	=95	=95	=95	=95	=95	=95	=95	=95	=95	=95	=95	=95
*^	*	*^	*	*	*	*	*	*	*	*	*	*	*	*	*	*
2G/	4E\	.	2GG/	4EE\	.	.	.	.	(4E\	in	2G/	Si-	.	.	.	.	.	.
.	4D\	.	.	4DD\	.	.	.	.	4D\)	prin-	.	.	.	.	.	.	.	.
2c/	4E\	.	2C/	4EE\	.	.	.	.	(4E\	-ci-	2c\	-cut	.	.	.	.	.	.
.	4C\	.	.	4CC\	.	.	.	.	4C/)	-pi-	.	.	.	.	.	.	.	.
!	!	!	!LO:LB:g=original	!LO:LB:g=original	!	!	!	!	!	!	!	!	!	!	!	!	!	!
=96	=96	=96	=96	=96	=96	=96	=96	=96	=96	=96	=96	=96	=96	=96	=96	=96	=96	=96
!LO:N:xstem:cue	!	!	!	!	!	!	!	!	!	!	!	!	!	!	!	!	!	!
4B/	2.F\	.	4BB/	2.FF\	.	.	.	.	2.F\	-o	(4c\	e-	.	.	.	.	.	.
4A/	.	.	4AA/	.	.	.	.	.	.	.	4A\)	.	.	.	.	.	.	.
2d/	.	.	2D/	.	.	.	.	.	.	.	2d\	-rat	.	.	.	.	.	.
.	4D\	.	.	4DD\	.	.	.	.	4D/	.	.	.	.	.	.	.	.	.
=97	=97	=97	=97	=97	=97	=97	=97	=97	=97	=97	=97	=97	=97	=97	=97	=97	=97	=97
2B/	2G\	.	2BB/	2GG\	0r	.	00r	.	2G\	et	2B\	in	0r	.	00r	.	00r	00r
2c/	2E\	.	2C/	2EE\	.	.	.	.	2E\	nunc	2c\	prin-	.	.	.	.	.	.
=98	=98	=98	=98	=98	=98	=98	=98	=98	=98	=98	=98	=98	=98	=98	=98	=98	=98	=98
2c/	2D\	.	2C/	2DD\	.	.	.	.	1D	et	2c\	-ci-	.	.	.	.	.	.
2B/	2G\	.	2BB/	2GG\	.	.	.	.	.	.	2B\	-pi-	.	.	.	.	.	.
*v	*v	*	*	*	*	*	*	*	*	*	*	*	*	*	*	*	*	*
*	*	*v	*v	*	*	*	*	*	*	*	*	*	*	*	*	*	*
=99	=99	=99	=99	=99	=99	=99	=99	=99	=99	=99	=99	=99	=99	=99	=99	=99
2C/	.	2CC/	2c/	.	.	.	2C/	sem-	2c\	-o	2c\	Si-	.	.	.	.
2AA/	6	2AAA/	[2f/	.	.	.	2AA/	.	2c\	et	2f\	-cut	.	.	.	.
!LO:PB:g=original	!	!	!	!	!	!	!LO:LB:g=original	!	!	!	!	!	!	!	!	!
=100	=100	=100	=100	=100	=100	=100	=100	=100	=100	=100	=100	=100	=100	=100	=100	=100
!LO:TX:t=P:problem:przeskok na skan 57	!	!	!	!	!	!	!	!	!	!	!	!	!	!	!	!
2.BB/	.	2.BBB/	4f/]	.	.	.	2.BB/	.	2.d\	nunc	(4f\	e-	.	.	.	.
.	.	.	4d/	.	.	.	.	.	.	.	4d\)	.	.	.	.	.
.	.	.	2g/	.	.	.	.	.	.	.	2g\	-rat	.	.	.	.
4GG/	.	4GGG/	.	.	.	.	4GG/	.	4B\	et	.	.	.	.	.	.
!	!	!	!	!	!	!	!	!	!LO:LB:g=original	!	!	!	!	!	!	!
=101	=101	=101	=101	=101	=101	=101	=101	=101	=101	=101	=101	=101	=101	=101	=101	=101
2C/	.	2CC/	4e/	.	2g/	.	2C/	-per	4G/	sem-	4e\	in	2g\	Si-	00r	00r
.	.	.	4d/	.	.	.	.	.	4G/	-per	4d\	prin-	.	.	.	.
2r	.	2r	4e/	.	[2cc\	.	2r	.	2r	.	4e\	-ci-	2cc\	-cut	.	.
.	.	.	4c/	.	.	.	.	.	.	.	4c\	-pi-	.	.	.	.
*clefC1	*	*	*	*	*	*	*	*	*	*	*	*	*	*	*	*
=102	=102	=102	=102	=102	=102	=102	=102	=102	=102	=102	=102	=102	=102	=102	=102	=102
*	*	*clefC1	*	*	*	*	*	*	*	*	*	*	*	*	*	*
!	!	!	!	!	!LO:N:xstem:cue	!	!	!	!LO:TX:a:t=3	!	!	!	!	!	!	!
2.f\	6	2.f\	2.f/	.	4cc\]	.	0r	.	0r	.	2.f\	-o	(4cc\	e-	.	.
.	.	.	.	.	4a/	.	.	.	.	.	.	.	4a\)	.	.	.
.	.	.	.	.	2dd\	.	.	.	.	.	.	.	2dd\	-rat	.	.
4d\	.	4d\	4d/	.	.	.	.	.	.	.	4d\	et	.	.	.	.
=103	=103	=103	=103	=103	=103	=103	=103	=103	=103	=103	=103	=103	=103	=103	=103	=103
2.g\	4 2	2.g\	2.g/	.	4cc\	.	.	.	.	.	2.g\	nunc	4b\	in	.	.
.	.	.	.	.	4g/	.	.	.	.	.	.	.	4g\	prin-	.	.
.	.	.	.	.	4a/	.	.	.	.	.	.	.	4a\	-ci-	.	.
4f\	.	4f\	4f/	.	4b/	.	.	.	.	.	4f\	et	4b\	-pi-	.	.
!	!	!LO:LB:g=original	!	!	!	!	!	!	!	!	!	!	!	!	!	!
=104	=104	=104	=104	=104	=104	=104	=104	=104	=104	=104	=104	=104	=104	=104	=104	=104
4e\	6	4e\	4e/	.	4cc\	.	1r	.	1r	.	(4e\	sem-	4cc\	-o	.	.
4d\	6	4d\	4d/	.	4b\	.	.	.	.	.	4d\)	.	4b\	et	.	.
4e\	6	4e\	4e/	.	4cc\	.	.	.	.	.	(4e\	-per	4cc\	nunc	.	.
4d\	6	4d\	4d/	.	4b\	.	.	.	.	.	4c\)	.	4b\	et	.	.
*clefF4	*	*	*	*	*	*	*	*	*	*	*	*	*	*	*	*
=105	=105	=105	=105	=105	=105	=105	=105	=105	=105	=105	=105	=105	=105	=105	=105	=105
*	*	*clefF4	*	*	*	*	*	*	*	*	*	*	*	*	*2\right	*
!	!	!	!	!	!	!	!	!	!	!	!	!	!	!	!LO:TX:b:t=Sicut erat	!LO:TX:b:t=Sicut erat
2C/	.	2C/	4e/	.	4cc\	.	2C/	et	2c\	et	2f\	et	4cc\	sem-	2cc\	2ee\
.	.	.	4g/	.	4c/	.	.	.	.	.	.	.	4cc\	-p(er)	.	.
[2F\	.	[2F\	[2a/	.	4cc\	.	2F\	in	2A\	in	4a\	in	4cc\	et	2cc\	2aa\
.	.	.	.	.	4a/	.	.	.	.	.	4a\	.	4cc\	in	.	.
!	!	!	!	!	!	!	!	!	!	!	!LO:LB:g=original	!	!LO:LB:g=original	!	!	!
=106	=106	=106	=106	=106	=106	=106	=106	=106	=106	=106	=106	=106	=106	=106	=106	=106
!LO:N:xstem:cue	!	!LO:N:xstem:cue	!LO:N:xstem:cue	!	!	!	!	!	!	!	!	!	!	!	!	!
4F\]	6	4F\]	4a/]	.	2dd\	.	4.F\	sae-	2d\	sae-	4a\	sae-	2dd\	sae-	2dd\	4aa\
4D\	.	4D\	4f/	.	.	.	.	.	.	.	4f\	-cu-	.	.	.	4ff\
.	.	.	.	.	.	.	8D\	-cu-	.	.	.	.	.	.	.	.
2G\	.	2G\	2b\	.	4b\	.	2G\	-la	4B\	-cu-	2d\	-la	4dd\	-cu-	2g/	2dd\
.	.	.	.	.	4gg\	.	.	.	4B\	-la	.	.	4dd\	-la	.	.
!	!	!	!LO:PB:g=original	!	!LO:LB:g=original	!	!	!	!	!	!	!	!	!	!	!
=107	=107	=107	=107	=107	=107	=107	=107	=107	=107	=107	=107	=107	=107	=107	=107	=107
4E\	6	4E\	2cc\	.	4gg\	.	4E\	sae-	4G/	sae-	2g\	sae-	2cc\	sae-	1ryy	2.cc\
4F#X\	-5	4F#X\	.	.	4aa\	.	4F#X\	-cu-	4A/	-cu-	.	.	.	.	.	.
!LO:LB:g=original	!	!	!	!	!	!	!	!	!	!	!	!	!	!	!	!
2G\	.	2G\	4b\	.	2bb\	.	4G\	-lo-	2B\	-lo-	2a\	-cu-	2b\	-cu-	.	.
.	.	.	4dd\	.	.	.	4G\	-rum	.	.	.	.	.	.	.	4dd\
=108	=108	=108	=108	=108	=108	=108	=108	=108	=108	=108	=108	=108	=108	=108	=108	=108
2G\	4 2	2G\	2cc\	.	2.aa\	.	2G\	a-	1c	.	(2e\	-lo-	1a	-lo-	2cc\	2cc\
2F#X\	6	2F#X\	2dd\	.	.	.	2F#X\	.	.	.	2d\)	-rum	.	.	2dd\	2dd\
.	.	.	.	.	4aa\	.	.	.	.	.	.	.	.	.	.	.
=109	=109	=109	=109	=109	=109	=109	=109	=109	=109	=109	=109	=109	=109	=109	=109	=109
2G\	.	2G\	2b\	.	4gg\	.	2G\	-men	2B\	-rum	2d\	a-	2g\	-rum	2g/	2dd\
.	.	.	.	.	4g/	.	.	.	.	.	.	.	.	.	.	.
2C/	.	2C/	4r	.	[2cc\	.	2C/	a-	2c\	a-	2e\	.	[2cc\	a-	2r	2r
.	.	.	4e/	.	.	.	.	.	.	.	.	.	.	.	.	.
!	!	!	!	!	!	!	!LO:LB:g=original	!	!	!	!	!	!	!	!	!
=110	=110	=110	=110	=110	=110	=110	=110	=110	=110	=110	=110	=110	=110	=110	=110	=110
!	!	!	!	!	!LO:N:xstem:cue	!	!	!	!	!	!	!	!LO:N:xstem:cue	!	!	!
2F\	5	2F\	2.a/	.	4cc\]	.	2F\	.	2A/	.	2c\	.	4cc\]	.	00r	00r
.	.	.	.	.	4a/	.	.	.	.	.	.	.	4a\	.	.	.
2D\	.	2D\	.	.	[2dd\	.	2D\	.	2F/	.	2f\	.	[2dd\	.	.	.
.	.	.	4f/	.	.	.	.	.	.	.	.	.	.	.	.	.
!	!	!	!	!	!	!	!	!	!LO:LB:g=original	!	!	!	!	!	!	!
=111	=111	=111	=111	=111	=111	=111	=111	=111	=111	=111	=111	=111	=111	=111	=111	=111
!	!	!	!	!	!LO:N:xstem:cue	!	!	!	!	!	!	!	!LO:N:xstem:cue	!	!	!
2G\	.	2G\	2.b/	.	4dd\]	.	2G\	.	2B\	.	2d\	.	4dd\]	.	.	.
.	.	.	.	.	4b\	.	.	.	.	.	.	.	4b\	.	.	.
2E\	.	2E\	.	.	[2ee\	.	2E\	.	2G/	.	2g\	.	[2ee\	.	.	.
.	.	.	4g/	.	.	.	.	.	.	.	.	.	.	.	.	.
!	!	!LO:LB:g=original	!	!	!	!	!	!	!	!	!	!	!	!	!	!
=112	=112	=112	=112	=112	=112	=112	=112	=112	=112	=112	=112	=112	=112	=112	=112	=112
!	!	!	!	!	!LO:N:xstem:cue	!	!	!	!	!	!	!	!LO:N:xstem:cue	!	!	!
2A\	n	2A\	2.cc\	.	4ee\]	.	2A\	.	2c\	.	2e\	.	4ee\]	.	.	.
.	.	.	.	.	4cc\	.	.	.	.	.	.	.	4cc\	.	.	.
2F\	.	2F\	.	.	[2ff\	.	2F\	.	2A/	.	2a\	.	[2ff#\	.	.	.
.	.	.	4a/	.	.	.	.	.	.	.	.	.	.	.	.	.
=113	=113	=113	=113	=113	=113	=113	=113	=113	=113	=113	=113	=113	=113	=113	=113	=113
!	!	!	!	!	!	!	!	!	!	!	!	!	!LO:N:xstem:cue	!	!	!
2B\	-5	2B\	2.dd\	.	4ff\]	.	2B\	.	2d\	.	2f\	.	4ff#\]	.	.	.
.	.	.	.	.	4dd\	.	.	.	.	.	.	.	4dd\	.	.	.
2G\	7	2G\	.	.	4gg\	.	2G\	.	2B\	.	2b\	.	4gg\	.	.	.
.	.	.	4b\	.	4ff\	.	.	.	.	.	.	.	4ff#\	.	.	.
=114	=114	=114	=114	=114	=114	=114	=114	=114	=114	=114	=114	=114	=114	=114	=114	=114
2.c\	.	2.c\	2.g/	.	4ee\	.	2.c\	.	2.e\	.	2.a\	.	4ee\	.	1r	1r
.	.	.	.	.	4dd\	.	.	.	.	.	.	.	4dd\	.	.	.
!	!	!	!	!	!	!	!	!	!	!	!	!	!LO:LB:g=original	!	!	!
.	.	.	.	.	4ee\	.	.	.	.	.	.	.	4cc\	.	.	.
4F\	.	4F\	4a/	.	4ff\	.	4F\	.	4f\	-men	4a\	-men	4dd\	.	.	.
!	!	!	!	!	!LO:LB:g=original	!	!	!	!	!	!LO:LB:g=original	!	!	!	!	!
=115	=115	=115	=115	=115	=115	=115	=115	=115	=115	=115	=115	=115	=115	=115	=115	=115
2.G\	.	2.G\	4d/	.	4b/	.	2.G\	.	4d\	a-	2.g\	.	4b\	.	2.g/	2.dd\
.	.	.	4c/	.	4g/	.	.	.	4B\	.	.	.	4g\	.	.	.
.	.	.	4d/	.	4a/	.	.	.	4c\	-men	.	.	4a\	.	.	.
4F\	4 2	4F\	4e/	.	4b/	.	4F\	.	4d\	.	4g\	.	4b\	.	4g/	4dd\
!	!	!	!LO:LB:g=original	!	!	!	!	!	!	!	!	!	!	!	!	!LO:LB:g=original
=116	=116	=116	=116	=116	=116	=116	=116	=116	=116	=116	=116	=116	=116	=116	=116	=116
4E\	6:	4E\	2e/	.	2.cc\	.	4E\	.	2.e\	a-	1g	a-	2.cc\	-men	2cc\	2ee\
4F\	.	4F\	.	.	.	.	4F\	.	.	.	.	.	.	.	.	.
4G\	.	4G\	4c/	.	.	.	4G\	.	.	.	.	.	.	.	2cc\	2gg\
4E\	.	4E\	4cc\	.	[4gg\	.	4E\	.	4c\	.	.	.	4gg\	a-	.	.
!LO:LB:g=original	!	!	!	!	!	!	!	!	!	!	!	!	!	!	!LO:LB:g=original	!
=117	=117	=117	=117	=117	=117	=117	=117	=117	=117	=117	=117	=117	=117	=117	=117	=117
2A\	7	2A\	2cc\	.	4gg\]	.	2B\	-men	1c	.	2c\	.	4gg\	.	2cc\	4gg\
.	.	.	.	.	8ff\L	.	.	.	.	.	.	.	8ff#\L	.	.	8ff\L
.	.	.	.	.	8ee\J	.	.	.	.	.	.	.	8ee\J	.	.	8ee\J
2D\	7	2D\	2c/	.	[2ff\	.	2D/	a-	.	.	2f\	.	2ff#\	.	2cc\	2ff\
!	!	!	!	!	!	!	!LO:LB:g=original	!	!	!	!	!	!	!	!	!
=118	=118	=118	=118	=118	=118	=118	=118	=118	=118	=118	=118	=118	=118	=118	=118	=118
2G\	7	2G\	2b\	.	4ff\]	.	2G\	.	2B\	.	2d\	.	4ff#\	.	2g/	4ff\
.	.	.	.	.	8ee\L	.	.	.	.	.	.	.	8ee\L	.	.	8ee\L
.	.	.	.	.	8dd\J	.	.	.	.	.	.	.	8dd\J	.	.	8dd\J
2C/	.	2C/	2cc\	.	[2ee\	.	2C/	-men	2c\	.	2g\	.	2ee\	.	2cc\	2ee\
=119	=119	=119	=119	=119	=119	=119	=119	=119	=119	=119	=119	=119	=119	=119	=119	=119
2.F\	7	2.F\	2.a/	.	2ee\]	.	2.F\	a-	2A\	.	2.a\	.	2ee\	.	2ee\	2.ee\
.	.	.	.	.	4dd\	.	.	.	2d\	.	.	.	4dd\	.	4dd\	.
4F\	65	4F\	4a/	.	4cc\	.	4F\	.	.	.	4a\	.	4cc\	.	4cc\	8dd\L
.	.	.	.	.	.	.	.	.	.	.	.	.	.	.	.	8cc\J
!	!	!LO:LB:g=original	!	!	!	!	!	!	!	!	!	!	!	!	!	!
=120	=120	=120	=120	=120	=120	=120	=120	=120	=120	=120	=120	=120	=120	=120	=120	=120
2F\	2	2F\	2g/	.	2b\	.	2F\	.	2d\	.	2.g\	.	2b\	.	2g/	2dd\
4E\	6	4E\	4g/	.	4cc\	.	(4E\	.	2c\	.	.	.	4cc\	.	2g/	2ee\
4F\	.	4F\	4a/	.	4dd\	.	4F\)	.	.	.	4a\	.	4dd\	.	.	.
=121	=121	=121	=121	=121	=121	=121	=121	=121	=121	=121	=121	=121	=121	=121	=121	=121
2G\	6 4	2G\	2cc\	.	2ee\	.	2G\	.	2c\	.	1g	.	2ee\	.	2cc\	2ee\
2GG/	3	2GG/	2b\	.	2dd\	.	2GG/	.	2B\	.	.	.	2dd\	.	2g/	2dd\
!	!	!	!	!	!	!	!	!	!	!	!	!	!LO:LB:g=original	!	!	!
=122	=122	=122	=122	=122	=122	=122	=122	=122	=122	=122	=122	=122	=122	=122	=122	=122
1C	.	1C	1cc	.	1cc	.	1C	-men	1c	-men.	1g	-men.	1cc	-men	1cc	1ee
==	==	==	==	==	==	==	==	==	==	==	==	==	==	==	==	==
*-	*-	*-	*-	*-	*-	*-	*-	*-	*-	*-	*-	*-	*-	*-	*-	*-
!!!system-decoration: [(s1,s2)][(s3,s4,s5,s6)][(s7,s8,s9)][(s10)]
!!!RDF**kern: > = above
!!!RDF**kern: < = below
!!!ENC: Andrzej Gręziak
!!!END: 2024-05-15
!!!ENC: Leszek Kubiak
!!!END: 2024-08-21
